X: 4
T: Missa Et ecce terre motus / Sanctus
N: Derived from Bru1008d-Missa_Et_ecce_terre_motus-Sanctus.krn
C: Antoine Brumel
%%abc-version 2.0
%%abcx-abcm2ps-target-version 5.9.1 (29 Sep 2008)
%%abc-creator hum2abc beta
%%abcx-conversion-date 2019/02/16 20:23:56
%%abc-edited-by Jesse Rodin
%%abc-edited-by Legge/Rodin
%%abcx-initial-encoding-date 2014/08/07/
%%humdrum-veritas 270977236
%%humdrum-veritas-data 3354087967
%%linebreak <none>
%%barnumbers 0
L: 1/4
M: 3/1
Q: 1/2=120
V: 1 clef=treble
V: 2 clef=treble
V: 3 clef=treble
V: 4 clef=treble-8
V: 5 clef=treble-8
V: 6 clef=treble-8
V: 7 clef=treble-8
V: 8 clef=treble-8
V: 9 clef=treble-8
V: 10 clef=bass
V: 11 clef=bass
V: 12 clef=bass
K: C
[V:1] z12 | 
[V:2] z12 | 
[V:3] z12 | 
[V:4] z12 | 
[V:5] d12- | 
[V:6] F3GF2G2D4 | 
[V:7] z12 | 
[V:8] z12 | 
[V:9] A6B4A2 | 
[V:10] D,6G,4F,2 | 
[V:11] D,6G,,2D,4 | 
[V:12] z12 | 
[V:1] z12 | 
[V:2] z12 | 
[V:3] z12 | 
[V:4] z12 | 
[V:5] d12 | 
[V:6] G2A2B3GA4 | 
[V:7] z12 | 
[V:8] z12 | 
[V:9] B2A3GG4^F2 | 
[V:10] G,2F,2G,4D,4 | 
[V:11] G,,2D,2B,,2G,,2z2D,2 | 
[V:12] z12 | 
[V:1] z12 | 
[V:2] z12 | 
[V:3] z12 | 
[V:4] z12 | 
[V:5] B8d4 | 
[V:6] d3cB3AG4 | 
[V:7] z12 | 
[V:8] z12 | 
[V:9] G4d3cB2A2 | 
[V:10] G,,4z2G,4F,2 | 
[V:11] D,4G,,8 | 
[V:12] z12 | 
[V:1] z12 | 
[V:2] z12 | 
[V:3] z12 | 
[V:4] z12 | 
[V:5] e12 | 
[V:6] z4c3BA2G2 | 
[V:7] z12 | 
[V:8] z12 | 
[V:9] G8c4 | 
[V:10] E,3D,C,8 | 
[V:11] C,6E,3F,G,2 | 
[V:12] z12 | 
[V:1] z12 | 
[V:2] z12 | 
[V:3] z12 | 
[V:4] z12 | 
[V:5] d2d4c2d4 | 
[V:6] F4G4A4 | 
[V:7] z12 | 
[V:8] z12 | 
[V:9] B2A3GG4^F2 | 
[V:10] D,4E,4D,4 | 
[V:11] z2D,2G,2C,2F,2D,2 | 
[V:12] z12 | 
[V:1] z12 | 
[V:2] z12 | 
[V:3] z12 | 
[V:4] z12 | 
[V:5] d12 | 
[V:6] B6G2G4 | 
[V:7] z12 | 
[V:8] z12 | 
[V:9] G12 | 
[V:10] G,,12 | 
[V:11] D,12 | 
[V:12] z12 | 
[V:1] d12- | 
[V:2] A6B4A2 | 
[V:3] F3GF2G2D4 | 
[V:4] d6g4f2 | 
[V:5] z12 | 
[V:6] z2d4G2d4 | 
[V:7] z12 | 
[V:8] z12 | 
[V:9] z12 | 
[V:10] z12 | 
[V:11] z12 | 
[V:12] z12 | 
[V:1] d12 | 
[V:2] B2A3GG4^F2 | 
[V:3] G2A2B3GA4 | 
[V:4] g2f2g4d4 | 
[V:5] z12 | 
[V:6] G2d2B2G2z2d2 | 
[V:7] z12 | 
[V:8] z12 | 
[V:9] z12 | 
[V:10] z12 | 
[V:11] z12 | 
[V:12] z12 | 
[V:1] B8d4 | 
[V:2] G4d3cB2A2 | 
[V:3] d3cB3AG4 | 
[V:4] G4z2g4f2 | 
[V:5] z12 | 
[V:6] d4G8 | 
[V:7] z12 | 
[V:8] z12 | 
[V:9] z12 | 
[V:10] z12 | 
[V:11] z12 | 
[V:12] z12 | 
[V:1] e12 | 
[V:2] G8c4 | 
[V:3] z4c3BA2G2 | 
[V:4] e3dc8 | 
[V:5] z12 | 
[V:6] c6e3fg2 | 
[V:7] z12 | 
[V:8] z12 | 
[V:9] z12 | 
[V:10] z12 | 
[V:11] z12 | 
[V:12] z12 | 
[V:1] d2d4c2d4 | 
[V:2] B2A3GG4^F2 | 
[V:3] F4G4A4 | 
[V:4] d4e4d4 | 
[V:5] z12 | 
[V:6] z2d2g2c2f2d2 | 
[V:7] z12 | 
[V:8] z12 | 
[V:9] z8d4 | 
[V:10] z12 | 
[V:11] z12 | 
[V:12] z12 | 
[V:1] d12 | 
[V:2] G12 | 
[V:3] B12 | 
[V:4] G8G4 | 
[V:5] z12 | 
[V:6] d6B3cd2 | 
[V:7] z12 | 
[V:8] z12 | 
[V:9] d2B3cd2G2d2- | 
[V:10] z12 | 
[V:11] z12 | 
[V:12] z12 | 
[V:1] z12 | 
[V:2] z12 | 
[V:3] z12 | 
[V:4] B6c2d4 | 
[V:5] G12 | 
[V:6] G2d4G3AB2 | 
[V:7] z12 | 
[V:8] z12 | 
[V:9] dcBAGFE2z2G2- | 
[V:10] D,6E,4D,2 | 
[V:11] G,,6C,4B,,2 | 
[V:12] z12 | 
[V:1] z12 | 
[V:2] z12 | 
[V:3] z8d4 | 
[V:4] c2d3cc4B2 | 
[V:5] G12 | 
[V:6] E2G4E2D2G2- | 
[V:7] z12 | 
[V:8] z12 | 
[V:9] G2D2G3ABcd2 | 
[V:10] E,2D,2E,2C,2D,4 | 
[V:11] C,2B,,2C,2C,2G,,4 | 
[V:12] z12 | 
[V:1] z12 | 
[V:2] c6e4d2 | 
[V:3] e6c3BG2 | 
[V:4] c3defg6 | 
[V:5] E8G4 | 
[V:6] GFEDC6D2 | 
[V:7] z12 | 
[V:8] z12 | 
[V:9] G4z2G3AB2 | 
[V:10] C,8z4 | 
[V:11] C,4z2C,4B,,2 | 
[V:12] z12 | 
[V:1] A8A4 | 
[V:2] c3BA2c6 | 
[V:3] z2c3BAGF4 | 
[V:4] c4f3ec4 | 
[V:5] A12 | 
[V:6] E4z2F3GA2 | 
[V:7] z12 | 
[V:8] z12 | 
[V:9] c2A2c3BAGc2 | 
[V:10] C,8F,3E, | 
[V:11] A,,3G,,F,,8 | 
[V:12] z12 | 
[V:1] B2d3cc4B2 | 
[V:2] G2B2A4z4 | 
[V:3] z4z2A2d4 | 
[V:4] g4z4d4 | 
[V:5] G2G4F2G4 | 
[V:6] D2G2C4z2G2 | 
[V:7] z12 | 
[V:8] z12 | 
[V:9] B2G2c2A2BAGF | 
[V:10] D,2B,,2E,2C,2D,4 | 
[V:11] G,,4A,,4G,,4 | 
[V:12] z12 | 
[V:1] c4z2c3Bcd | 
[V:2] e3dc2G2c4 | 
[V:3] G2c3BcBG2G2- | 
[V:4] e2g3fedc4 | 
[V:5] G12 | 
[V:6] E3FG2C2G2C2 | 
[V:7] z12 | 
[V:8] z12 | 
[V:9] G2E3FG2C2G2- | 
[V:10] (C,6E,6) | 
[V:11] (C,12 | 
[V:12] z12 | 
[V:1] B4z2B3ABc | 
[V:2] z2d3cBAB2G2- | 
[V:3] GFGFD4G4 | 
[V:4] z2g2g3fgfd2- | 
[V:5] z4G4G3A | 
[V:6] G3AB4z2B2 | 
[V:7] z12 | 
[V:8] z12 | 
[V:9] G2D2G2D2D4 | 
[V:10] D,4B,,3C,D,4 | 
[V:11] G,,8)G,,4- | 
[V:12] z12 | 
[V:1] B2A3GG4^F2 | 
[V:2] G2c2A2B2d4 | 
[V:3] z2A2d2G2A4 | 
[V:4] def4d2fedc | 
[V:5] B2c4B2A4 | 
[V:6] G2C4G2DEF2 | 
[V:7] z12 | 
[V:8] z12 | 
[V:9] z2A4D2d4 | 
[V:10] z2A,,4D,4D,2 | 
[V:11] G,,2F,,4G,,2D,4 | 
[V:12] z12 | 
[V:1] G4D4z2A2 | 
[V:2] d2DEF2G4A2 | 
[V:3] B2G2A2B2d4- | 
[V:4] d2g2f2d3ef2 | 
[V:5] G4d8- | 
[V:6] D6G4D2 | 
[V:7] z12 | 
[V:8] d12- | 
[V:9] B2d3cBAG2d2 | 
[V:10] D,2B,2A,2G,4F,2 | 
[V:11] G,,4z2B,3A,A,2 | 
[V:12] z12 | 
[V:1] B3AA2G4F2 | 
[V:2] D4z2B3AA2 | 
[V:3] d8z4 | 
[V:4] d2g2z2G3FD2 | 
[V:5] d4z2D3EF2 | 
[V:6] G4A2B2d3c | 
[V:7] z12 | 
[V:8] d12- | 
[V:9] B2d3cBAG2z2 | 
[V:10] G,2D,4G,,A,,B,,C,D,2 | 
[V:11] G,4F,2G,2D,4 | 
[V:12] z12 | 
[V:1] G2D4d3cA2 | 
[V:2] G4F2G2D4 | 
[V:3] B3AA2G4F2 | 
[V:4] G4z2B3AA2 | 
[V:5] D4z2D3EF2 | 
[V:6] BAG2D2G2z4 | 
[V:7] z12 | 
[V:8] d12 | 
[V:9] D3EF2D2D4- | 
[V:10] z4z2G,,A,,B,,C,D,2 | 
[V:11] G,,A,,B,,C,D,2G,,2z4 | 
[V:12] z12 | 
[V:1] B2d3cBAG2zD | 
[V:2] d3cA2B2d3c | 
[V:3] G2D4d3cA2 | 
[V:4] G4F2G2D4 | 
[V:5] D8z4 | 
[V:6] B3AA2G4F2 | 
[V:7] z12 | 
[V:8] d12- | 
[V:9] D4z2B3AA2 | 
[V:10] G,,2z2z2G,,A,,B,,C,D,2 | 
[V:11] G,,A,,B,,C,D,2G,,2z4 | 
[V:12] z12 | 
[V:1] d3cA2B3AA2 | 
[V:2] BAG2zDd3cA2 | 
[V:3] B2d3cBAG2zD | 
[V:4] D3EF2D2d4 | 
[V:5] B3AA2G4F2 | 
[V:6] G2D4D3EF2 | 
[V:7] z12 | 
[V:8] d12- | 
[V:9] G4F2G2D4 | 
[V:10] G,,2z2z2G,,A,,B,,C,D,2 | 
[V:11] G,,A,,B,,C,D,2G,,2z4 | 
[V:12] z12 | 
[V:1] G4F2G2D4 | 
[V:2] B3AA2G4F2 | 
[V:3] d3cA2B3AA2 | 
[V:4] d3ef2d2z2d2 | 
[V:5] G2D4D3EF2 | 
[V:6] D2d4d3cA2 | 
[V:7] z12 | 
[V:8] d12 | 
[V:9] z8D4 | 
[V:10] G,,2z2z2G,,A,,B,,C,D,2 | 
[V:11] G,,A,,B,,C,D,2G,,2z4 | 
[V:12] z12 | 
[V:1] d8z4 | 
[V:2] B12 | 
[V:3] G12- | 
[V:4] d8z2G2 | 
[V:5] D8G2B2- | 
[V:6] B2G2B3cd2G2 | 
[V:7] G12- | 
[V:8] B12- | 
[V:9] G4G2B3cd2 | 
[V:10] G,,12- | 
[V:11] G,,2B,,3C,D,2G,,2D,2 | 
[V:12] z12 | 
[V:1] G2B3cd2G2d2 | 
[V:2] z2G2B3cd2G2 | 
[V:3] G4z4G2B2- | 
[V:4] B3cd2G2d2dB- | 
[V:5] Bcd2G2d2dB2G | 
[V:6] d2dB2GG2D2G2 | 
[V:7] G12 | 
[V:8] B12 | 
[V:9] G2d2dB2GG2D2 | 
[V:10] G,,4G,,2B,,3C,D,2 | 
[V:11] D,B,,2G,,G,,8- | 
[V:12] z12 | 
[V:1] dB2GG2D2G2z2 | 
[V:2] d2dB2GG2D2G2 | 
[V:3] Bcd2G2d2dB2G | 
[V:4] BGG2D2G2z2d2 | 
[V:5] G4B3cd2G2 | 
[V:6] D4d2dB2GG2 | 
[V:7] G12- | 
[V:8] d12- | 
[V:9] G2D4D2D4 | 
[V:10] G,,2D,2D,B,,2G,,G,,4- | 
[V:11] G,,8D,4- | 
[V:12] z12 | 
[V:1] d2dB2GG2d2B2 | 
[V:2] z2d2dB2GG2d2 | 
[V:3] G2D2G2d2dB2G | 
[V:4] dB2GG2g6 | 
[V:5] g3fg2d3cdB | 
[V:6] D2B4B2B4 | 
[V:7] G12 | 
[V:8] d12 | 
[V:9] z2D2D4G4 | 
[V:10] G,,12 | 
[V:11] D,2G,4F,E,D,4 | 
[V:12] z12 | 
[V:1] e4c4z4 | 
[V:2] G2c3BG2G4 | 
[V:3] G2EFG3Cc4- | 
[V:4] g4c2e3fg2 | 
[V:5] c2c4c2c4 | 
[V:6] z2G4C2E3F | 
[V:7] E12- | 
[V:8] e12- | 
[V:9] G4z4C2E2- | 
[V:10] C,4E,3F,G,2C,2 | 
[V:11] C,2E,3F,G,2C,2G,2 | 
[V:12] C,12- | 
[V:1] C2E3FG2C2G2 | 
[V:2] z2C2E3FG2C2 | 
[V:3] c4C2E3FG2 | 
[V:4] c2g2ge2cc2c2- | 
[V:5] G4z2C2E3F | 
[V:6] G2C2G2GE2CC2 | 
[V:7] E4G8- | 
[V:8] e12- | 
[V:9] EFG2C2G2GE2C | 
[V:10] G,2G,E,2C,C,2C,4 | 
[V:11] G,E,2C,C,4z4 | 
[V:12] C,4C,8- | 
[V:1] GE2CC2c3Bcd | 
[V:2] G2GE2CC2z2c2- | 
[V:3] C2G2GE2CC4 | 
[V:4] c2e3fg2c3B | 
[V:5] G2C2G2GE2CC2 | 
[V:6] c8c2A2- | 
[V:7] G8A4- | 
[V:8] e12- | 
[V:9] C4C3DE4- | 
[V:10] z4z4C,4- | 
[V:11] E,12- | 
[V:12] C,8A,,4- | 
[V:1] e4c4z4 | 
[V:2] cBcde4c4 | 
[V:3] z2c3Bcde2c2- | 
[V:4] cde4c4e2- | 
[V:5] c6A4GF | 
[V:6] A2GFE2c3Bcd | 
[V:7] A12 | 
[V:8] e12- | 
[V:9] E2A4GFE4 | 
[V:10] C,12 | 
[V:11] E,8E,4 | 
[V:12] A,,12 | 
[V:1] z4C2E3FG2 | 
[V:2] z4z2C2E3F | 
[V:3] cB/A/G2c4C2E2- | 
[V:4] edefg2c2g2ge- | 
[V:5] E2G2C2G2GE2C | 
[V:6] e2c3BG2c4 | 
[V:7] G12- | 
[V:8] e12- | 
[V:9] z2e4c3BG2 | 
[V:10] z2C,2E,3F,G,2C,2 | 
[V:11] C,2E,3F,G,2C,2G,2 | 
[V:12] C,12- | 
[V:1] C2G2GE2CC2c2 | 
[V:2] G2C2G2GE2CC2 | 
[V:3] EFG2C2G2GE2E | 
[V:4] ecc2G2c3BGA | 
[V:5] C2E4E2E4 | 
[V:6] z4z2G2c4 | 
[V:7] G12 | 
[V:8] e12 | 
[V:9] c6c2G4 | 
[V:10] G,2G,E,2C,C,2z4 | 
[V:11] G,E,2C,C,2z2C,4 | 
[V:12] C,12 | 
[V:1] B3cd4z4 | 
[V:2] G12- | 
[V:3] G2d2B8 | 
[V:4] B8z2G2 | 
[V:5] z4D4G2B2- | 
[V:6] z2G2B3cd2G2 | 
[V:7] G12- | 
[V:8] d12- | 
[V:9] z4G2B3cd2 | 
[V:10] G,,2B,,3C,D,2G,,2D,2 | 
[V:11] G,,12- | 
[V:12] D,12- | 
[V:1] z2G2B3cd2G2 | 
[V:2] G4z4G2B2- | 
[V:3] G2B3cd2G2d2 | 
[V:4] B3cd2G2d2dB- | 
[V:5] Bcd2G2d2dB2G | 
[V:6] d2dB2GG2D2G2 | 
[V:7] G12 | 
[V:8] d12 | 
[V:9] G2d2dB2GG2D2 | 
[V:10] D,B,,2G,,G,,8- | 
[V:11] G,,4G,,2B,,3C,D,2 | 
[V:12] D,12- | 
[V:1] d2dB2GG2D2G2 | 
[V:2] Bcd2G2d2dB2G | 
[V:3] dB2GG2D2G2z2 | 
[V:4] BGG2D2G2z2d2 | 
[V:5] G2z2B3cd2G2 | 
[V:6] D4d2dB2GG2 | 
[V:7] G12- | 
[V:8] d12- | 
[V:9] B2B3cd2G2B2- | 
[V:10] G,,8D,4- | 
[V:11] G,,2D,2D,B,,2G,,G,,4- | 
[V:12] D,12- | 
[V:1] z2d2dB2GG2d2 | 
[V:2] G2D2G2d2dB2G | 
[V:3] d2dB2GG2d2B2 | 
[V:4] dB2GG2g3fg2 | 
[V:5] g3fg2d2z2G2- | 
[V:6] D2B3ABcd4 | 
[V:7] G12 | 
[V:8] d12 | 
[V:9] BABcd2G3AB2 | 
[V:10] D,2G,4F,E,D,4 | 
[V:11] G,,12 | 
[V:12] D,12 | 
[V:1] e3dcBc4BA | 
[V:2] G4e3dcBc2- | 
[V:3] c4z4e3d | 
[V:4] e2c2e3fg2c2 | 
[V:5] G2E3FG2C2G2 | 
[V:6] c4c2e3fg2 | 
[V:7] z12 | 
[V:8] z12 | 
[V:9] E3FG2C2G2GE- | 
[V:10] z12 | 
[V:11] C,4z8 | 
[V:12] C,12 | 
[V:1] G4C2E3FG2 | 
[V:2] c2BAG2C2E3F | 
[V:3] cBc4BAG4 | 
[V:4] g2ge2cc2z2e2- | 
[V:5] GE2CC4z2G2- | 
[V:6] c2g2ge2cc4 | 
[V:7] z12 | 
[V:8] z12 | 
[V:9] ECC2z4C2E2- | 
[V:10] z2C,2E,3F,G,2C,2 | 
[V:11] C,2E,3F,G,2C,2G,2 | 
[V:12] C,12- | 
[V:1] C2G2GE2CC2G2- | 
[V:2] G2C2G2GE2CC2 | 
[V:3] E3FG2C2c4 | 
[V:4] e2e2e3fg4 | 
[V:5] G2G2G4c4 | 
[V:6] z2c4c2G3A | 
[V:7] z12 | 
[V:8] z12 | 
[V:9] EFG2C2G2GE2E | 
[V:10] G,2G,E,2C,C,2E,4 | 
[V:11] G,E,2C,C,4z4 | 
[V:12] C,12 | 
[V:1] GABcd2G3AB2 | 
[V:2] G3ABcd2G4 | 
[V:3] B2G3AB3cd2 | 
[V:4] d4g4z2g2 | 
[V:5] d2B4G2G4 | 
[V:6] Bcd2G3AB4 | 
[V:7] z12 | 
[V:8] z2d2d2B2d4 | 
[V:9] G3F/E/D4z2G2 | 
[V:10] D,2G,3G,G,F,/E,/D,4 | 
[V:11] G,,12 | 
[V:12] z12 | 
[V:1] c4z2c2A2c2 | 
[V:2] G2e3de2c2G2 | 
[V:3] c2G6E2G2- | 
[V:4] e2c3B/A/G2c4 | 
[V:5] G2E4C2C4 | 
[V:6] G4c4z2G2 | 
[V:7] z2G2G2E2G4 | 
[V:8] e12 | 
[V:9] C3DEFG2C2E2 | 
[V:10] z2C,2C,3D,E,2C,2 | 
[V:11] C,8C,4 | 
[V:12] z12 | 
[V:1] B3AAGG4^F2 | 
[V:2] d4z2G2d4 | 
[V:3] GFD2z4A4 | 
[V:4] z2d2A2e2fedc | 
[V:5] z2G2A2E2A2D2 | 
[V:6] B3cd2G2z2D2 | 
[V:7] z2G2F2G2A4 | 
[V:8] d2d4c2d4 | 
[V:9] G3FD2G2D2d2 | 
[V:10] D,3E,F,2C,2F,3E, | 
[V:11] G,,4D,2E,2D,4 | 
[V:12] z4z4z2D,2- | 
[V:1] G12- | 
[V:2] z2d4d2B3c | 
[V:3] B12- | 
[V:4] d4z2B2G3A | 
[V:5] z2D2G8- | 
[V:6] G12- | 
[V:7] G12- | 
[V:8] z12 | 
[V:9] B3cd4z4 | 
[V:10] D,8z4 | 
[V:11] G,,12- | 
[V:12] D,2D,2B,,2D,2E,2D,2 | 
[V:1] G12 ||  
[V:2] d12 ||  
[V:3] B12 ||  
[V:4] B2G2d8 ||  
[V:5] G12 ||  
[V:6] G12 ||  
[V:7] G12 ||  
[V:8] d12 ||  
[V:9] D12 & B12 ||  
[V:10] D,12 ||  
[V:11] G,,12 ||  
[V:12] D,12 ||  
[V:1]  [K:C] [K:clef=treble][M:2/1]c8- | 
[V:2]  [K:C] [K:clef=treble][M:2/1]G3A/G/A2G2- | 
[V:3]  [K:C] [K:clef=treble][M:2/1]E4F2E2- | 
[V:4]  [K:C] [K:clef=treble-8][M:2/1]c4F2c2- | 
[V:5]  [K:C] [K:clef=treble-8][M:2/1]z8 | 
[V:6]  [K:C] [K:clef=treble-8][M:2/1]z8 | 
[V:7]  [K:C] [K:clef=treble-8][M:2/1]z8 | 
[V:8]  [K:C] [K:clef=treble-8][M:2/1]z8 | 
[V:9]  [K:C] [K:clef=treble-8][M:2/1]z8 | 
[V:10]  [K:C] [K:clef=bass][M:2/1]z8 | 
[V:11]  [K:C] [K:clef=bass][M:2/1]z8 | 
[V:12]  [K:C] [K:clef=bass][M:2/1]z8 | 
[V:1] c8 | 
[V:2] G2^FEF4 | 
[V:3] EDCB,C4 | 
[V:4] cBAGA4 | 
[V:5] z8 | 
[V:6] z8 | 
[V:7] z8 | 
[V:8] z8 | 
[V:9] z8 | 
[V:10] z8 | 
[V:11] z8 | 
[V:12] z8 | 
[V:1] B8- | 
[V:2] G4z2D2 | 
[V:3] D4EDG2- | 
[V:4] G8- | 
[V:5] z8 | 
[V:6] z8 | 
[V:7] z8 | 
[V:8] z8 | 
[V:9] z8 | 
[V:10] z8 | 
[V:11] z8 | 
[V:12] z8 | 
[V:1] B8 | 
[V:2] E2D2G4 | 
[V:3] G2FED4 | 
[V:4] G8 | 
[V:5] z8 | 
[V:6] z8 | 
[V:7] z8 | 
[V:8] z8 | 
[V:9] z8 | 
[V:10] z8 | 
[V:11] z8 | 
[V:12] z8 | 
[V:1] z8 | 
[V:2] z8 | 
[V:3] z8 | 
[V:4] z8 | 
[V:5] G4A2G2 | 
[V:6] c8- | 
[V:7] z8 | 
[V:8] z8 | 
[V:9] e4e2e2- | 
[V:10] C,4A,,2C,2- | 
[V:11] z8 | 
[V:12] z8 | 
[V:1] z8 | 
[V:2] z8 | 
[V:3] z8 | 
[V:4] z8 | 
[V:5] E2G3FD2- | 
[V:6] c4B4 | 
[V:7] z8 | 
[V:8] z8 | 
[V:9] e2dcd4- | 
[V:10] C,2B,,A,,G,,2G,,2 | 
[V:11] z8 | 
[V:12] z8 | 
[V:1] z8 | 
[V:2] z8 | 
[V:3] z8 | 
[V:4] z8 | 
[V:5] DEFGA2G2- | 
[V:6] A2d3cBA | 
[V:7] z8 | 
[V:8] z8 | 
[V:9] d2cBA2B2- | 
[V:10] D,3E,F,2G,2- | 
[V:11] z8 | 
[V:12] z8 | 
[V:1] z8 | 
[V:2] z8 | 
[V:3] z8 | 
[V:4] z8 | 
[V:5] GABcd4 | 
[V:6] G4A4 | 
[V:7] z8 | 
[V:8] z8 | 
[V:9] BAG4F2 | 
[V:10] G,2E,2D,4 | 
[V:11] z8 | 
[V:12] z8 | 
[V:1] G3ABcd2- | 
[V:2] D4G4 | 
[V:3] B3cd2B2- | 
[V:4] G4G3A | 
[V:5] z8 | 
[V:6] z8 | 
[V:7] z8 | 
[V:8] z8 | 
[V:9] G4z4 | 
[V:10] z8 | 
[V:11] z8 | 
[V:12] z8 | 
[V:1] dcc4B2 | 
[V:2] F2E2D4 | 
[V:3] BAG3FG2 | 
[V:4] B2c2G4 | 
[V:5] z8 | 
[V:6] z8 | 
[V:7] z8 | 
[V:8] z8 | 
[V:9] z8 | 
[V:10] z8 | 
[V:11] z8 | 
[V:12] z8 | 
[V:1] c4z4 | 
[V:2] C4z4 | 
[V:3] E4z4 | 
[V:4] c4z4 | 
[V:5] z8 | 
[V:6] z8 | 
[V:7] z8 | 
[V:8] z8 | 
[V:9] z4z2C2- | 
[V:10] z2C,3D,E,F, | 
[V:11] z8 | 
[V:12] z8 | 
[V:1] z4z2G2 | 
[V:2] z8 | 
[V:3] z8 | 
[V:4] z8 | 
[V:5] z8 | 
[V:6] z2G3ABc | 
[V:7] z8 | 
[V:8] z8 | 
[V:9] CDEFG4 | 
[V:10] G,4E,4 | 
[V:11] z8 | 
[V:12] z8 | 
[V:1] F3GA2B2- | 
[V:2] z8 | 
[V:3] z8 | 
[V:4] z2f3ed2- | 
[V:5] z8 | 
[V:6] d4c2B2 | 
[V:7] z8 | 
[V:8] z8 | 
[V:9] A4z4 | 
[V:10] D,3E,F,2G,2- | 
[V:11] z8 | 
[V:12] z8 | 
[V:1] BGG4^F2 | 
[V:2] z4d3c | 
[V:3] z8 | 
[V:4] dBc2d4 | 
[V:5] z4z2d2- | 
[V:6] G4A4 | 
[V:7] z8 | 
[V:8] z8 | 
[V:9] z4z2D2 | 
[V:10] G,2E,2D,4 | 
[V:11] z8 | 
[V:12] z8 | 
[V:1] G4z4 | 
[V:2] BAB2G2AB | 
[V:3] D3CDEF2- | 
[V:4] z8 | 
[V:5] dcBAB2c2- | 
[V:6] G4z4 | 
[V:7] z8 | 
[V:8] z8 | 
[V:9] G6F2- | 
[V:10] G,,4z4 | 
[V:11] z8 | 
[V:12] z8 | 
[V:1] z8 | 
[V:2] cAB3GG2- | 
[V:3] FED4C2 | 
[V:4] z8 | 
[V:5] c2B2G4 | 
[V:6] z8 | 
[V:7] z8 | 
[V:8] z8 | 
[V:9] F2G4E2 | 
[V:10] z8 | 
[V:11] z8 | 
[V:12] z8 | 
[V:1] z4z2G2- | 
[V:2] G2^F2G4 | 
[V:3] D4D4 | 
[V:4] z8 | 
[V:5] A4G4 | 
[V:6] z8 | 
[V:7] z8 | 
[V:8] z8 | 
[V:9] D4G4 | 
[V:10] z8 | 
[V:11] z8 | 
[V:12] z8 | 
[V:1] GABcd4- | 
[V:2] z4z2D2- | 
[V:3] z8 | 
[V:4] z2G3ABc | 
[V:5] z8 | 
[V:6] z4G3A | 
[V:7] z8 | 
[V:8] z8 | 
[V:9] z8 | 
[V:10] z8 | 
[V:11] z8 | 
[V:12] z8 | 
[V:1] d4d2e2- | 
[V:2] DEFGABc2- | 
[V:3] z8 | 
[V:4] d3ef2g2- | 
[V:5] z8 | 
[V:6] Bcd4c2- | 
[V:7] z8 | 
[V:8] z8 | 
[V:9] z8 | 
[V:10] z8 | 
[V:11] z8 | 
[V:12] z8 | 
[V:1] edd4^c2 | 
[V:2] cBAGA4 | 
[V:3] z4z2E2 | 
[V:4] gfd2e4 | 
[V:5] z4z2A2 | 
[V:6] cdB2A4 | 
[V:7] z8 | 
[V:8] z8 | 
[V:9] z8 | 
[V:10] z8 | 
[V:11] z8 | 
[V:12] z8 | 
[V:1] d4z4 | 
[V:2] A4z4 | 
[V:3] F3DFGA2- | 
[V:4] d4z4 | 
[V:5] A4z2A2- | 
[V:6] D4z4 | 
[V:7] z8 | 
[V:8] z8 | 
[V:9] d8- | 
[V:10] z2D,2D,3E, | 
[V:11] z8 | 
[V:12] z8 | 
[V:1] z8 | 
[V:2] z8 | 
[V:3] A2D2G4- | 
[V:4] z8 | 
[V:5] A2B2G2B2- | 
[V:6] z8 | 
[V:7] z8 | 
[V:8] z8 | 
[V:9] d8- | 
[V:10] F,D,G,4F,E, | 
[V:11] z8 | 
[V:12] z8 | 
[V:1] z4z2A2- | 
[V:2] z4z2F2- | 
[V:3] G2FEF4 | 
[V:4] z8 | 
[V:5] B2AGA4 | 
[V:6] z4z2d2- | 
[V:7] z8 | 
[V:8] z8 | 
[V:9] d8 | 
[V:10] D,8 | 
[V:11] z8 | 
[V:12] z8 | 
[V:1] A2A2B2G2 | 
[V:2] F2F2G3F | 
[V:3] z8 | 
[V:4] d4d2e2 | 
[V:5] D4z4 | 
[V:6] d2d2G2c2- | 
[V:7] z8 | 
[V:8] z8 | 
[V:9] z8 | 
[V:10] z8 | 
[V:11] z8 | 
[V:12] z8 | 
[V:1] A2B2c4 | 
[V:2] E2D2C4 | 
[V:3] z8 | 
[V:4] c2d2e2f2 | 
[V:5] z8 | 
[V:6] c2B2A4 | 
[V:7] z8 | 
[V:8] z8 | 
[V:9] z8 | 
[V:10] z8 | 
[V:11] z8 | 
[V:12] z8 | 
[V:1] B4z4 | 
[V:2] D4z4 | 
[V:3] z8 | 
[V:4] g4z4 | 
[V:5] z8 | 
[V:6] G4z2F2- | 
[V:7] z8 | 
[V:8] z8 | 
[V:9] z4z2A2- | 
[V:10] z4z2D,2- | 
[V:11] z8 | 
[V:12] z8 | 
[V:1] z8 | 
[V:2] z8 | 
[V:3] z8 | 
[V:4] z8 | 
[V:5] D4D2E2 | 
[V:6] F2F2G3F | 
[V:7] z8 | 
[V:8] z8 | 
[V:9] A2A2B2G2 | 
[V:10] D,2D,2G,,2C,2- | 
[V:11] z8 | 
[V:12] z8 | 
[V:1] z8 | 
[V:2] z8 | 
[V:3] z8 | 
[V:4] z8 | 
[V:5] C2D2E2F2 | 
[V:6] E2D2C4 | 
[V:7] z8 | 
[V:8] z8 | 
[V:9] A2B2c4 | 
[V:10] C,2B,,2A,,4 | 
[V:11] z8 | 
[V:12] z8 | 
[V:1] z4G4 | 
[V:2] z8 | 
[V:3] G4G2B2- | 
[V:4] G8- | 
[V:5] G8 | 
[V:6] D8 | 
[V:7] z8 | 
[V:8] z8 | 
[V:9] B8 | 
[V:10] G,,8 | 
[V:11] z8 | 
[V:12] z8 | 
[V:1] G2B3cd2 | 
[V:2] G4G2B2- | 
[V:3] Bcd2G2d2- | 
[V:4] G4G4 | 
[V:5] z8 | 
[V:6] z8 | 
[V:7] z8 | 
[V:8] z8 | 
[V:9] z8 | 
[V:10] z8 | 
[V:11] z8 | 
[V:12] z8 | 
[V:1] G2d3cBA | 
[V:2] Bcd2G2d2- | 
[V:3] dcBAG4 | 
[V:4] G8- | 
[V:5] z8 | 
[V:6] z8 | 
[V:7] z8 | 
[V:8] z8 | 
[V:9] z8 | 
[V:10] z8 | 
[V:11] z8 | 
[V:12] z8 | 
[V:1] G4z4 | 
[V:2] dcBAG4 | 
[V:3] z8 | 
[V:4] G8 | 
[V:5] z8 | 
[V:6] G4G2B2- | 
[V:7] z8 | 
[V:8] z8 | 
[V:9] z4G4 | 
[V:10] G,,8- | 
[V:11] z8 | 
[V:12] z8 | 
[V:1] z8 | 
[V:2] z8 | 
[V:3] z8 | 
[V:4] z8 | 
[V:5] G4G2B2- | 
[V:6] Bcd2G2d2- | 
[V:7] z8 | 
[V:8] z8 | 
[V:9] G2B3cd2 | 
[V:10] G,,4G,,4 | 
[V:11] z8 | 
[V:12] z8 | 
[V:1] z8 | 
[V:2] z8 | 
[V:3] z8 | 
[V:4] z8 | 
[V:5] Bcd2G2d2- | 
[V:6] dcBAG4 | 
[V:7] z8 | 
[V:8] z8 | 
[V:9] G2d3cBA | 
[V:10] G,,8- | 
[V:11] z8 | 
[V:12] z8 | 
[V:1] z8 | 
[V:2] z8 | 
[V:3] z8 | 
[V:4] z8 | 
[V:5] dcBAG4 | 
[V:6] z8 | 
[V:7] z8 | 
[V:8] z8 | 
[V:9] G4z4 | 
[V:10] G,,8 | 
[V:11] z8 | 
[V:12] z8 | 
[V:1] z2d3cBA | 
[V:2] G4F2G2 | 
[V:3] d3cBAB2 | 
[V:4] G4D2G2- | 
[V:5] z8 | 
[V:6] z8 | 
[V:7] z8 | 
[V:8] z8 | 
[V:9] z8 | 
[V:10] z8 | 
[V:11] z8 | 
[V:12] z8 | 
[V:1] B2G2B2A2- | 
[V:2] D3E/F/G2E2 | 
[V:3] G2d4c2- | 
[V:4] G2G4A2 | 
[V:5] z8 | 
[V:6] z8 | 
[V:7] z8 | 
[V:8] z8 | 
[V:9] z8 | 
[V:10] z8 | 
[V:11] z8 | 
[V:12] z8 | 
[V:1] AGG4^F2 | 
[V:2] F2D2D4 | 
[V:3] c2B2A4 | 
[V:4] F2G2D4 | 
[V:5] z8 | 
[V:6] z8 | 
[V:7] z8 | 
[V:8] z8 | 
[V:9] z8 | 
[V:10] z8 | 
[V:11] z8 | 
[V:12] z8 | 
[V:1] G4z4 | 
[V:2] z8 | 
[V:3] B4z4 | 
[V:4] G8 | 
[V:5] z4d3c | 
[V:6] z2d3cBA | 
[V:7] z8 | 
[V:8] z8 | 
[V:9] d3cBAB2 | 
[V:10] z8 | 
[V:11] z8 | 
[V:12] z8 | 
[V:1] z8 | 
[V:2] z8 | 
[V:3] z8 | 
[V:4] z8 | 
[V:5] BAB2G2A2 | 
[V:6] B2G2B2A2- | 
[V:7] z8 | 
[V:8] z8 | 
[V:9] G2d4c2- | 
[V:10] z8 | 
[V:11] z8 | 
[V:12] z8 | 
[V:1] z8 | 
[V:2] z8 | 
[V:3] z8 | 
[V:4] z8 | 
[V:5] F2G2D4 | 
[V:6] AGG4^F2 | 
[V:7] z8 | 
[V:8] z8 | 
[V:9] c2B2A4 | 
[V:10] z8 | 
[V:11] z8 | 
[V:12] z8 | 
[V:1] z8 | 
[V:2] z8 | 
[V:3] z8 | 
[V:4] z2d3cBA | 
[V:5] G4z4 | 
[V:6] G4z4 | 
[V:7] z8 | 
[V:8] z8 | 
[V:9] B4z4 | 
[V:10] G,4F,2G,2- | 
[V:11] z8 | 
[V:12] z8 | 
[V:1] z8 | 
[V:2] z8 | 
[V:3] z8 | 
[V:4] B2G2B2A2- | 
[V:5] z8 | 
[V:6] z8 | 
[V:7] z8 | 
[V:8] z8 | 
[V:9] z8 | 
[V:10] G,F,E,2D,2C,2 | 
[V:11] z8 | 
[V:12] z8 | 
[V:1] z8 | 
[V:2] z8 | 
[V:3] z8 | 
[V:4] AGG4^F2 | 
[V:5] z8 | 
[V:6] z8 | 
[V:7] z8 | 
[V:8] z8 | 
[V:9] z8 | 
[V:10] D,2B,,2A,,4 | 
[V:11] z8 | 
[V:12] z8 | 
[V:1] z2d3cBA | 
[V:2] G2B3cd2- | 
[V:3] B6G2- | 
[V:4] G4z2d2- | 
[V:5] D4G3F | 
[V:6] d3cBAB2 | 
[V:7] z8 | 
[V:8] z8 | 
[V:9] G4D4 | 
[V:10] G,,6G,,2 | 
[V:11] z8 | 
[V:12] z8 | 
[V:1] B2G2B2A2- | 
[V:2] dcBAG2c2 | 
[V:3] G2FED2A2- | 
[V:4] d2efg2e2 | 
[V:5] D4z2A2- | 
[V:6] G2d4c2- | 
[V:7] z8 | 
[V:8] z8 | 
[V:9] G6C2- | 
[V:10] G,,4G,,2A,,2 | 
[V:11] z8 | 
[V:12] z8 | 
[V:1] AGG4^F2 | 
[V:2] A2d2z2A2 | 
[V:3] A2Bcd4 | 
[V:4] f2d3cd2 | 
[V:5] A2D2F3E | 
[V:6] c2B2A4 | 
[V:7] z8 | 
[V:8] z8 | 
[V:9] C2G2D4 | 
[V:10] F,,2G,,2D,4 | 
[V:11] z8 | 
[V:12] z8 | 
[V:1] G8- | 
[V:2] B3cd4 | 
[V:3] z2d2B3c | 
[V:4] B8- | 
[V:5] D8- | 
[V:6] G8- | 
[V:7] z8 | 
[V:8] z8 | 
[V:9] d8- | 
[V:10] G,,8- | 
[V:11] z8 | 
[V:12] z8 | 
[V:1] G8 ||  
[V:2] B8 ||  
[V:3] d8 ||  
[V:4] B8 ||  
[V:5] D8 ||  
[V:6] G8 ||  
[V:7] z8 ||  
[V:8] z8 ||  
[V:9] d8 ||  
[V:10] G,,8 ||  
[V:11] z8 ||  
[V:12] z8 ||  
[V:1]  [K:C] [K:clef=treble][M:3/1]z12 | 
[V:2]  [K:C] [K:clef=treble][M:3/1]z12 | 
[V:3]  [K:C] [K:clef=treble][M:3/1]z12 | 
[V:4]  [K:C] [K:clef=treble-8][M:3/1]z12 | 
[V:5]  [K:C] [K:clef=treble-8][M:3/1]z12 | 
[V:6]  [K:C] [K:clef=treble-8][M:3/1]z12 | 
[V:7]  [K:C] [K:clef=treble-8][M:3/1]z12 | 
[V:8]  [K:C] [K:clef=treble-8][M:3/1]z12 | 
[V:9]  [K:C] [K:clef=treble-8][M:3/1]z12 | 
[V:10]  [K:C] [K:clef=bass][M:3/1]D,4D,4B,,4 | 
[V:11]  [K:C] [K:clef=bass][M:3/1]z12 | 
[V:12]  [K:C] [K:clef=bass][M:3/1]z12 | 
[V:1] z12 | 
[V:2] z12 | 
[V:3] z12 | 
[V:4] d4d4B4 | 
[V:5] z12 | 
[V:6] z12 | 
[V:7] z12 | 
[V:8] z12 | 
[V:9] z12 | 
[V:10] D,8E,4 | 
[V:11] z12 | 
[V:12] z12 | 
[V:1] z12 | 
[V:2] d4d4B4 | 
[V:3] z12 | 
[V:4] d8e4 | 
[V:5] z12 | 
[V:6] z12 | 
[V:7] z12 | 
[V:8] z12 | 
[V:9] z12 | 
[V:10] D,4D,4z4 | 
[V:11] z12 | 
[V:12] z12 | 
[V:1] z12 | 
[V:2] d8e4 | 
[V:3] z12 | 
[V:4] d4d4z4 | 
[V:5] z12 | 
[V:6] G4G4E4 | 
[V:7] z12 | 
[V:8] z12 | 
[V:9] z12 | 
[V:10] G,,8C,4 | 
[V:11] z12 | 
[V:12] z12 | 
[V:1] G4G4E4 | 
[V:2] d4d4z4 | 
[V:3] z12 | 
[V:4] B4d4c4 | 
[V:5] z12 | 
[V:6] G8A4 | 
[V:7] z12 | 
[V:8] z12 | 
[V:9] z12 | 
[V:10] G,,6A,,B,,C,2A,,2 | 
[V:11] z12 | 
[V:12] z12 | 
[V:1] G8A4 | 
[V:2] c6A2c2d2 | 
[V:3] z12 | 
[V:4] e6d2c4 | 
[V:5] z12 | 
[V:6] G4G4z4 | 
[V:7] z12 | 
[V:8] z12 | 
[V:9] z12 | 
[V:10] E,8E,4 | 
[V:11] C,4C,4A,,4 | 
[V:12] z12 | 
[V:1] G4G4z4 | 
[V:2] e8d4 | 
[V:3] z12 | 
[V:4] G8d4 | 
[V:5] z12 | 
[V:6] C4G4F4 | 
[V:7] z12 | 
[V:8] z12 | 
[V:9] c4c4A4 | 
[V:10] E,8F,4 | 
[V:11] C,8D,4 | 
[V:12] z12 | 
[V:1] E8F4 | 
[V:2] e8d4 | 
[V:3] c4c4A4 | 
[V:4] G6A2F4 | 
[V:5] z12 | 
[V:6] E3FG4D4 | 
[V:7] z12 | 
[V:8] z12 | 
[V:9] c8d4 | 
[V:10] G,4C,4F,4 | 
[V:11] C,4C,4z4 | 
[V:12] z12 | 
[V:1] G6A2B4 | 
[V:2] G4c4z4 | 
[V:3] c8d4 | 
[V:4] z4c4B4 | 
[V:5] G8G4 | 
[V:6] z2E2C4G4 | 
[V:7] z12 | 
[V:8] z12 | 
[V:9] c4c4z4 | 
[V:10] E,8D,4 | 
[V:11] C,8G,,4 | 
[V:12] z12 | 
[V:1] G2G4^FEF4 | 
[V:2] e8A4 | 
[V:3] c4c4z4 | 
[V:4] c4G4d4 | 
[V:5] E4G4A4 | 
[V:6] G8D4 | 
[V:7] z12 | 
[V:8] z12 | 
[V:9] G4c4z2A2 | 
[V:10] E,4C,4F,4 | 
[V:11] C,4E,4D,4 | 
[V:12] z12 | 
[V:1] G2B4AGA4 | 
[V:2] d8d4 | 
[V:3] B4G2G4^F2 | 
[V:4] d2g3fdef2d2 | 
[V:5] G4G4z4 | 
[V:6] z2G2B4A4 | 
[V:7] z12 | 
[V:8] d8d4 | 
[V:9] B3cd2G2D4 | 
[V:10] D,4G,,4z4 | 
[V:11] G,,8D,4 | 
[V:12] z12 | 
[V:1] B4G8 | 
[V:2] d4B4c4 | 
[V:3] G4d4G4 | 
[V:4] d6G4A2 | 
[V:5] B8E4 | 
[V:6] G4B4G4 | 
[V:7] G4G4E4 | 
[V:8] B4d4e4 | 
[V:9] D2EFG4z4 | 
[V:10] D,8C,4 | 
[V:11] G,,8C,4 | 
[V:12] z12 | 
[V:1] d6cBA4 | 
[V:2] B4G2G4^F2 | 
[V:3] G4D2G2D4 | 
[V:4] B6c2d4 | 
[V:5] B2G4D2D4 | 
[V:6] G2D2G4z2D2 | 
[V:7] G8A4 | 
[V:8] d4d4z4 | 
[V:9] d8d4 | 
[V:10] D,6E,2F,4 | 
[V:11] G,,8D,4 | 
[V:12] D,8D,4 | 
[V:1] B8B4 | 
[V:2] G8G4 | 
[V:3] d8z4 | 
[V:4] d8B4 | 
[V:5] G4B6c2 | 
[V:6] B6G2G4 | 
[V:7] G4G4z4 | 
[V:8] z12 | 
[V:9] D4G8 | 
[V:10] D,4z2B,,4G,,2 | 
[V:11] G,,8G,,4 | 
[V:12] B,,4D,4E,4 | 
[V:1] B4d4c4 | 
[V:2] G8A4 | 
[V:3] d4B4e4 | 
[V:4] G6G4FE | 
[V:5] d4G4z4 | 
[V:6] d8A4 | 
[V:7] z12 | 
[V:8] B8c4 | 
[V:9] D4G4C4 | 
[V:10] B,,8A,,4 | 
[V:11] G,,8C,4 | 
[V:12] D,4D,4z4 | 
[V:1] B4G4A4 | 
[V:2] B2c2d4z2A2 | 
[V:3] d4B2G2c4 | 
[V:4] G4z2D2A4 | 
[V:5] D8F4 | 
[V:6] D4G4D4 | 
[V:7] z12 | 
[V:8] d8c4 | 
[V:9] G8z4 | 
[V:10] D,4G,,2G,4F,2 | 
[V:11] G,,4B,,4A,,4 | 
[V:12] B,,8C,4 | 
[V:1] B2c2d4z4 | 
[V:2] D2E2F4c4 | 
[V:3] G4A6GF | 
[V:4] z4A4c4- | 
[V:5] D8z4 | 
[V:6] G4D4z4 | 
[V:7] z12 | 
[V:8] B4A8 | 
[V:9] d8e4- | 
[V:10] G,4F,4E,4 | 
[V:11] G,,4D,4A,,4 | 
[V:12] D,8C,4- | 
[V:1] c8c4 | 
[V:2] G4A8 | 
[V:3] E8A4 | 
[V:4] c4c4c4 | 
[V:5] C8C4 | 
[V:6] E4A8 | 
[V:7] E8F4 | 
[V:8] G4z4z4 | 
[V:9] e2d2e4c4 | 
[V:10] C,4z4z4 | 
[V:11] E,4C,8 | 
[V:12] C,4A,,8 | 
[V:1] B4d6c2 | 
[V:2] D12 | 
[V:3] B8B4 | 
[V:4] G2A2B2c2d4 | 
[V:5] G6A2B4 | 
[V:6] d6c2B2A2 | 
[V:7] G8F4 | 
[V:8] z12 | 
[V:9] z2g4fed4 | 
[V:10] z12 | 
[V:11] D,12 | 
[V:12] G,,12 | 
[V:1] c8B4 | 
[V:2] G8G4 | 
[V:3] c4d8 | 
[V:4] G4d8 | 
[V:5] z4G2A2B4 | 
[V:6] G4z4G4 | 
[V:7] E4D8 | 
[V:8] z12 | 
[V:9] e2g4fed4 | 
[V:10] G,8G,4 | 
[V:11] z12 | 
[V:12] G,,12 | 
[V:1] c8z4 | 
[V:2] G8z4 | 
[V:3] e8z4 | 
[V:4] G4z4z4 | 
[V:5] G8z4 | 
[V:6] c8z4 | 
[V:7] C8z4 | 
[V:8] c8d4 | 
[V:9] z2G4c4B2 | 
[V:10] G,6F,E,D,4 | 
[V:11] z12 | 
[V:12] E,8F,4 | 
[V:1] z12 | 
[V:2] z12 | 
[V:3] z12 | 
[V:4] z12 | 
[V:5] G4B6A2 | 
[V:6] z12 | 
[V:7] z12 | 
[V:8] e8d4 | 
[V:9] c4z4z4 | 
[V:10] C,4G,,4B,,4 | 
[V:11] z12 | 
[V:12] G,8F,4 | 
[V:1] z12 | 
[V:2] z12 | 
[V:3] z12 | 
[V:4] z12 | 
[V:5] G2F2G2D2G4 | 
[V:6] z12 | 
[V:7] z12 | 
[V:8] c6BAB4 | 
[V:9] c4d6ed | 
[V:10] C,4G,,8 | 
[V:11] G,8G,4 | 
[V:12] E,4D,8 | 
[V:1] z12 | 
[V:2] z12 | 
[V:3] z12 | 
[V:4] z12 | 
[V:5] E8F4 | 
[V:6] G6c4B2 | 
[V:7] c8d4 | 
[V:8] c8z4 | 
[V:9] e8z4 | 
[V:10] C,8z4 | 
[V:11] G,6F,E,D,4 | 
[V:12] C,8z4 | 
[V:1] z12 | 
[V:2] z12 | 
[V:3] z12 | 
[V:4] z12 | 
[V:5] G8F4 | 
[V:6] c4z4z4 | 
[V:7] e8d4 | 
[V:8] z12 | 
[V:9] G4B6A2 | 
[V:10] z12 | 
[V:11] C,4G,,4B,,4 | 
[V:12] z12 | 
[V:1] z12 | 
[V:2] z12 | 
[V:3] z12 | 
[V:4] z12 | 
[V:5] E4D8 | 
[V:6] c4d6ed | 
[V:7] c6BAB4 | 
[V:8] z12 | 
[V:9] G2F2G2D2G4 | 
[V:10] G,8G,4 | 
[V:11] C,4G,,8 | 
[V:12] z12 | 
[V:1] z12 | 
[V:2] z12 | 
[V:3] z12 | 
[V:4] c8d4 | 
[V:5] C6c4B2 | 
[V:6] e8z4 | 
[V:7] c8z4 | 
[V:8] z12 | 
[V:9] E8F4 | 
[V:10] G,6F,E,D,4 | 
[V:11] C,8z4 | 
[V:12] z12 | 
[V:1] z12 | 
[V:2] z12 | 
[V:3] z12 | 
[V:4] e8d4 | 
[V:5] c4z4z4 | 
[V:6] G4B6A2 | 
[V:7] z12 | 
[V:8] z12 | 
[V:9] G8F4 | 
[V:10] C,4G,,4B,,4 | 
[V:11] z12 | 
[V:12] z12 | 
[V:1] z12 | 
[V:2] z12 | 
[V:3] z12 | 
[V:4] c6BAB4 | 
[V:5] c4d6ed | 
[V:6] G2F2G2D2G4 | 
[V:7] z12 | 
[V:8] z12 | 
[V:9] E4D8 | 
[V:10] C,4G,,8 | 
[V:11] z12 | 
[V:12] z12 | 
[V:1] c8d4 | 
[V:2] G6c4B2 | 
[V:3] z12 | 
[V:4] c4e4f4 | 
[V:5] e8d4 | 
[V:6] E8z4 | 
[V:7] z12 | 
[V:8] z12 | 
[V:9] C8z4 | 
[V:10] C,8z4 | 
[V:11] z12 | 
[V:12] z12 | 
[V:1] e8d4 | 
[V:2] c4z4z4 | 
[V:3] G4B6A2 | 
[V:4] g8f4 | 
[V:5] c4G4B4 | 
[V:6] z12 | 
[V:7] z12 | 
[V:8] z12 | 
[V:9] z12 | 
[V:10] z12 | 
[V:11] z12 | 
[V:12] z12 | 
[V:1] c6BAB4 | 
[V:2] c4d6ed | 
[V:3] G2F2G2D2G4 | 
[V:4] e4d8 | 
[V:5] c4G8 | 
[V:6] z12 | 
[V:7] z12 | 
[V:8] z12 | 
[V:9] z12 | 
[V:10] z12 | 
[V:11] z12 | 
[V:12] z12 | 
[V:1] c8G4 | 
[V:2] e6c2e4 | 
[V:3] E2F2G4c4 | 
[V:4] c4e3fg4 | 
[V:5] g8e4 | 
[V:6] E4C4G2A2 | 
[V:7] G8G4 | 
[V:8] z12 | 
[V:9] c6G6 | 
[V:10] G,4E,4C,4 | 
[V:11] C,8C,4 | 
[V:12] z12 | 
[V:1] d8c4 | 
[V:2] d2B4G2G4 | 
[V:3] B2G3AB2E2G2- | 
[V:4] g2fed4z4 | 
[V:5] z2d2g4c4 | 
[V:6] B3cd4G4 | 
[V:7] G8E4 | 
[V:8] B8c4 | 
[V:9] G3AB2D2E2C2 | 
[V:10] D,8z4 | 
[V:11] G,,8C,4 | 
[V:12] D,4B,,4E,4 | 
[V:1] B4d4c4 | 
[V:2] z2B4G2G4 | 
[V:3] GFD2G4z2G2- | 
[V:4] g6fee4 | 
[V:5] z4G4G4 | 
[V:6] B2B3cd2G4 | 
[V:7] G3FD2G4E2 | 
[V:8] d6B2c4 | 
[V:9] z2G3FD2E2C2 | 
[V:10] G,,8C,4 | 
[V:11] G,,8z4 | 
[V:12] D,4B,,4E,4 | 
[V:1] B4d4c4 | 
[V:2] z2G2B4G4 | 
[V:3] GFD2G4z2G2- | 
[V:4] B4G4z4 | 
[V:5] G2B3cd2G2c2 | 
[V:6] B6G6 | 
[V:7] G8E4 | 
[V:8] d4B4c4 | 
[V:9] z2G3FD2z2C2 | 
[V:10] G,,8z4 | 
[V:11] G,,8C,4 | 
[V:12] D,8E,4 | 
[V:1] B8c4 | 
[V:2] z2d4B2G4 | 
[V:3] GFD2G4G3A | 
[V:4] g6g2e2g2- | 
[V:5] z2B3cdGg2c2 | 
[V:6] B3cd4G4 | 
[V:7] G3FD2G4E2 | 
[V:8] d8c4 | 
[V:9] G2G3FD2E2C2 | 
[V:10] G,,8C,4 | 
[V:11] G,,8z4 | 
[V:12] D,4B,,4E,4 | 
[V:1] d8c4 | 
[V:2] z2D2F3GA4 | 
[V:3] B2G2A4F4 | 
[V:4] gfd3ef3ec2 | 
[V:5] g4z4c4 | 
[V:6] d6cBA4 | 
[V:7] G4D4A4 | 
[V:8] B4A8 | 
[V:9] z2G2F4f4 | 
[V:10] G,,4D,4z4 | 
[V:11] D,4D,3E,F,4 | 
[V:12] D,8z4 | 
[V:1] B4A6G2 | 
[V:2] z4d8 | 
[V:3] z2D2F3GA4 | 
[V:4] g3fd4z4 | 
[V:5] G4A4D4 | 
[V:6] d6f4ed | 
[V:7] B3cd4A4 | 
[V:8] G4d8 | 
[V:9] d3cA6D2- | 
[V:10] z4D,4F,4 | 
[V:11] G,4F,4D,4 | 
[V:12] z4D,8 | 
[V:1] G8^F4 | 
[V:2] d6cBA4 | 
[V:3] B4d4D4 | 
[V:4] z2d3ef3edc | 
[V:5] G4z4D4 | 
[V:6] d8d4 | 
[V:7] z4A8 | 
[V:8] B4A8 | 
[V:9] D4F3GA2D2 | 
[V:10] G,4D,8 | 
[V:11] G,,4D,8 | 
[V:12] D,6E,2F,4 | 
[V:1] [M:2/1]G4z4 | 
[V:2] [M:2/1]d4z4 | 
[V:3] [M:2/1]B4z4 | 
[V:4] [M:2/1]B4z4 | 
[V:5] [M:2/1]d4z4 | 
[V:6] [M:2/1]d4z4 | 
[V:7] [M:2/1]B4z4 | 
[V:8] [M:2/1]G4z4 | 
[V:9] [M:2/1]D4z4 | 
[V:10] [M:2/1]D,4z4 | 
[V:11] [M:2/1]G,,4z4 | 
[V:12] [M:2/1]D,4z4 | 
[V:1] z8 | 
[V:2] B4c2d2- | 
[V:3] z8 | 
[V:4] z2g2e2f2 | 
[V:5] z8 | 
[V:6] z8 | 
[V:7] z8 | 
[V:8] z8 | 
[V:9] z8 | 
[V:10] z8 | 
[V:11] z8 | 
[V:12] z8 | 
[V:1] z8 | 
[V:2] d2B2A4 | 
[V:3] z8 | 
[V:4] d2g4f2 | 
[V:5] z8 | 
[V:6] z8 | 
[V:7] z8 | 
[V:8] z8 | 
[V:9] z8 | 
[V:10] z8 | 
[V:11] z8 | 
[V:12] z8 | 
[V:1] z8 | 
[V:2] z2GABGd2- | 
[V:3] z8 | 
[V:4] g3fgef2- | 
[V:5] z8 | 
[V:6] z8 | 
[V:7] z8 | 
[V:8] z8 | 
[V:9] z8 | 
[V:10] z8 | 
[V:11] z8 | 
[V:12] z8 | 
[V:1] z8 | 
[V:2] dcc3BBA | 
[V:3] z8 | 
[V:4] fce2d3c/B/ | 
[V:5] z8 | 
[V:6] z8 | 
[V:7] z8 | 
[V:8] z8 | 
[V:9] z8 | 
[V:10] z8 | 
[V:11] z8 | 
[V:12] z8 | 
[V:1] z8 | 
[V:2] c3Bc2B2- | 
[V:3] z8 | 
[V:4] ABcdecd2- | 
[V:5] z8 | 
[V:6] z8 | 
[V:7] z8 | 
[V:8] z8 | 
[V:9] z8 | 
[V:10] z8 | 
[V:11] z8 | 
[V:12] z8 | 
[V:1] z8 | 
[V:2] BAA4^G2 | 
[V:3] z8 | 
[V:4] dcBAB4 | 
[V:5] z8 | 
[V:6] z8 | 
[V:7] z8 | 
[V:8] z8 | 
[V:9] z8 | 
[V:10] z8 | 
[V:11] z8 | 
[V:12] z8 | 
[V:1] z8 | 
[V:2] A4z2A2 | 
[V:3] z8 | 
[V:4] z2A2d3c | 
[V:5] z8 | 
[V:6] z8 | 
[V:7] z8 | 
[V:8] z8 | 
[V:9] z8 | 
[V:10] z8 | 
[V:11] z8 | 
[V:12] z8 | 
[V:1] z8 | 
[V:2] d3cBAG2- | 
[V:3] z8 | 
[V:4] BAG4c2- | 
[V:5] z8 | 
[V:6] z8 | 
[V:7] z8 | 
[V:8] z8 | 
[V:9] z8 | 
[V:10] z8 | 
[V:11] z8 | 
[V:12] z8 | 
[V:1] z8 | 
[V:2] G2c2B2A2- | 
[V:3] z8 | 
[V:4] cBA2G2d2 | 
[V:5] z8 | 
[V:6] z8 | 
[V:7] z8 | 
[V:8] z8 | 
[V:9] z8 | 
[V:10] z8 | 
[V:11] z8 | 
[V:12] z8 | 
[V:1] z8 | 
[V:2] AGG4^F2 | 
[V:3] z8 | 
[V:4] B2c2A4 | 
[V:5] z8 | 
[V:6] z8 | 
[V:7] z8 | 
[V:8] z8 | 
[V:9] z8 | 
[V:10] z8 | 
[V:11] z8 | 
[V:12] z8 | 
[V:1] z8 | 
[V:2] G2d3Bd2 | 
[V:3] z8 | 
[V:4] G4g3f | 
[V:5] z8 | 
[V:6] z8 | 
[V:7] z8 | 
[V:8] z8 | 
[V:9] z8 | 
[V:10] z8 | 
[V:11] z8 | 
[V:12] z8 | 
[V:1] z8 | 
[V:2] BGd3cd2 | 
[V:3] z8 | 
[V:4] g2d2g3f | 
[V:5] z8 | 
[V:6] z8 | 
[V:7] z8 | 
[V:8] z8 | 
[V:9] z8 | 
[V:10] z8 | 
[V:11] z8 | 
[V:12] z8 | 
[V:1] z8 | 
[V:2] B2G2c2A2 | 
[V:3] z8 | 
[V:4] g2e2c2f2 | 
[V:5] z8 | 
[V:6] z8 | 
[V:7] z8 | 
[V:8] z8 | 
[V:9] z8 | 
[V:10] z8 | 
[V:11] z8 | 
[V:12] z8 | 
[V:1] z8 | 
[V:2] d3cBAG2- | 
[V:3] z8 | 
[V:4] d2g3fed | 
[V:5] z8 | 
[V:6] z8 | 
[V:7] z8 | 
[V:8] z8 | 
[V:9] z8 | 
[V:10] z8 | 
[V:11] z8 | 
[V:12] z8 | 
[V:1] z8 | 
[V:2] G2c4B2 | 
[V:3] z8 | 
[V:4] c2e2d4 | 
[V:5] z8 | 
[V:6] z8 | 
[V:7] z8 | 
[V:8] z8 | 
[V:9] z8 | 
[V:10] z8 | 
[V:11] z8 | 
[V:12] z8 | 
[V:1] e3dcBc2- | 
[V:2] c4e3d | 
[V:3] G4c4 | 
[V:4] c8 | 
[V:5] e4e2e2- | 
[V:6] E3FG2C2 | 
[V:7] G6E2- | 
[V:8] c8 | 
[V:9] z2E3FG2 | 
[V:10] E,8 | 
[V:11] C,8- | 
[V:12] C,8 | 
[V:1] c2BAG4 | 
[V:2] cBc4BA | 
[V:3] e3dcBc2- | 
[V:4] z4e3d | 
[V:5] efg2c2g2 | 
[V:6] z2E3FG2 | 
[V:7] E2C2C4 | 
[V:8] c4c4- | 
[V:9] C2z2E3F | 
[V:10] G,6E,2- | 
[V:11] C,4C,4 | 
[V:12] C,4G,4- | 
[V:1] z4G4 | 
[V:2] G4E4- | 
[V:3] c2BAG2c2- | 
[V:4] cBc4BA | 
[V:5] z2g4e2- | 
[V:6] C2e3fg2 | 
[V:7] G8- | 
[V:8] c4c4 | 
[V:9] G2C2e3f | 
[V:10] E,2C,2C,4 | 
[V:11] C,8- | 
[V:12] G,2E,4C,2 | 
[V:1] G4c4 | 
[V:2] E2E2E4 | 
[V:3] c2BAG2C2- | 
[V:4] G2g3fg2 | 
[V:5] e2c2c4 | 
[V:6] c2e3dcB | 
[V:7] G8 | 
[V:8] c8 | 
[V:9] g2c2e3d | 
[V:10] z4C,4- | 
[V:11] C,8 | 
[V:12] C,4G,4 | 
[V:1] c2A4F2 | 
[V:2] F4c4- | 
[V:3] C4F4 | 
[V:4] a4z4 | 
[V:5] z4z2FG | 
[V:6] c2FGABc2 | 
[V:7] c6A2- | 
[V:8] A8- | 
[V:9] cBc2FGAB | 
[V:10] C,8 | 
[V:11] F,,8- | 
[V:12] F,6E,D, | 
[V:1] F4z2c2- | 
[V:2] c2A4F2 | 
[V:3] z2c4A2- | 
[V:4] a4f4- | 
[V:5] ABc2F4 | 
[V:6] F4c4- | 
[V:7] A2F2F4 | 
[V:8] A8 | 
[V:9] c2FGABc2 | 
[V:10] F,6E,D, | 
[V:11] F,,8- | 
[V:12] C,8 | 
[V:1] cBAGF4 | 
[V:2] F4c4 | 
[V:3] A2GFA4 | 
[V:4] f2edc4 | 
[V:5] z2F3GA2 | 
[V:6] c2def4 | 
[V:7] A8 | 
[V:8] c8 | 
[V:9] z2F3EC2 | 
[V:10] C,8 | 
[V:11] F,,8 | 
[V:12] F,8 | 
[V:1] z2d3cBA | 
[V:2] G4z2d2- | 
[V:3] d4B2G2 | 
[V:4] z2g4fe | 
[V:5] D2d4d2 | 
[V:6] z4d4- | 
[V:7] G8- | 
[V:8] B8- | 
[V:9] G4z2D2- | 
[V:10] z8 | 
[V:11] G,,8- | 
[V:12] D,6G,2- | 
[V:1] G4z2G2- | 
[V:2] dcBAG2d2- | 
[V:3] d3cBAG2 | 
[V:4] d4z2d2- | 
[V:5] Bcd2G4 | 
[V:6] d2g4fe | 
[V:7] G4d4- | 
[V:8] B8 | 
[V:9] D2EFG2D2 | 
[V:10] D,8- | 
[V:11] G,,8 | 
[V:12] G,2F,E,D,4 | 
[V:1] G2^FEF4 | 
[V:2] dcdcA4 | 
[V:3] A2D2z2d2- | 
[V:4] def3edc | 
[V:5] z2A4D2- | 
[V:6] d4D4 | 
[V:7] d8 | 
[V:8] A8 | 
[V:9] z2d3cA2 | 
[V:10] D,8- | 
[V:11] D,8 | 
[V:12] F,8 | 
[V:1] G4z2G2- | 
[V:2] z2B3AGF | 
[V:3] dcBAG4 | 
[V:4] d2G2d4 | 
[V:5] D2D2G4 | 
[V:6] G3ABcd2 | 
[V:7] B8 | 
[V:8] G8- | 
[V:9] B2d3GG2 | 
[V:10] D,8 | 
[V:11] G,,8 | 
[V:12] z4D,4 | 
[V:1] GFEDE4 | 
[V:2] E4z4 | 
[V:3] z2e3dcB | 
[V:4] z2g4c2- | 
[V:5] z2C2G4 | 
[V:6] G4c2c2- | 
[V:7] c8- | 
[V:8] G8 | 
[V:9] z2G2C2G2 | 
[V:10] C,8- | 
[V:11] C,8 | 
[V:12] E,8 | 
[V:1] F4c4 | 
[V:2] c4c2c2- | 
[V:3] A2c3BAG | 
[V:4] c2f4ed | 
[V:5] z2C2F3G | 
[V:6] cBAGF4- | 
[V:7] c8 | 
[V:8] A4A4- | 
[V:9] F3GA3B | 
[V:10] C,8 | 
[V:11] F,,8- | 
[V:12] C,8- | 
[V:1] c2c3BAG | 
[V:2] cBAGA4 | 
[V:3] F6ED | 
[V:4] c4f4 | 
[V:5] A3Bc4 | 
[V:6] F2EDC4 | 
[V:7] c4c2c2- | 
[V:8] A4A4 | 
[V:9] c4F4- | 
[V:10] F,8- | 
[V:11] F,,8- | 
[V:12] C,8- | 
[V:1] A4F4 | 
[V:2] F4c4 | 
[V:3] C4z4 | 
[V:4] z2f3ga2 | 
[V:5] z2c2f4 | 
[V:6] c4c4 | 
[V:7] cBAGA4 | 
[V:8] A8 | 
[V:9] F2EDC4 | 
[V:10] F,8 | 
[V:11] F,,8 | 
[V:12] C,8 | 
[V:1] d4d2d2- | 
[V:2] B6G2- | 
[V:3] z2G3ABc | 
[V:4] d8 | 
[V:5] z2d2g4 | 
[V:6] G3ABcd2 | 
[V:7] G6FE | 
[V:8] B8- | 
[V:9] G4D4- | 
[V:10] D,8- | 
[V:11] G,,8- | 
[V:12] z4G,4- | 
[V:1] dcBAB2G2- | 
[V:2] GABcd2D2- | 
[V:3] d4G4 | 
[V:4] g6fe | 
[V:5] G8 | 
[V:6] G2d2D2G2 | 
[V:7] D4d4- | 
[V:8] B8 | 
[V:9] D4G4 | 
[V:10] D,8- | 
[V:11] G,,8 | 
[V:12] G,2F,E,D,4 | 
[V:1] G2^FEF4 | 
[V:2] DEFGA4 | 
[V:3] z4d4 | 
[V:4] d8- | 
[V:5] A8 | 
[V:6] FDd3cA2 | 
[V:7] d2cBA4 | 
[V:8] A8 | 
[V:9] D4z4 | 
[V:10] D,8 | 
[V:11] D,8 | 
[V:12] F,6D,2 | 
[V:1] G8- | 
[V:2] z2B4AG | 
[V:3] d2d4cB | 
[V:4] d8- | 
[V:5] z8 | 
[V:6] B2G2G4 | 
[V:7] z4d4- | 
[V:8] G8 | 
[V:9] z4G4- | 
[V:10] D,8- | 
[V:11] G,,8- | 
[V:12] G,,8- | 
[V:1] G8- | 
[V:2] d8- | 
[V:3] B8- | 
[V:4] d8- | 
[V:5] B8- | 
[V:6] G8- & d8- | 
[V:7] d4B4 | 
[V:8] G8- | 
[V:9] G8- | 
[V:10] D,8- | 
[V:11] G,,8- | 
[V:12] G,,8- | 
[V:1] G8 ||  
[V:2] d8 ||  
[V:3] B8 ||  
[V:4] d8 ||  
[V:5] B8 ||  
[V:6] G8 & d8 ||  
[V:7] B8 ||  
[V:8] G8 ||  
[V:9] G8 ||  
[V:10] D,8 ||  
[V:11] G,,8 ||  
[V:12] G,,8 ||  
[V:1]  [K:C] [K:clef=treble][M:2/1]z8 | 
[V:2]  [K:C] [K:clef=treble][M:2/1]z8 | 
[V:3]  [K:C] [K:clef=treble][M:2/1]z8 | 
[V:4]  [K:C] [K:clef=treble-8][M:2/1]z8 | 
[V:5]  [K:C] [K:clef=treble-8][M:2/1]z8 | 
[V:6]  [K:C] [K:clef=treble-8][M:2/1]z8 | 
[V:7]  [K:C] [K:clef=treble-8][M:2/1]z8 | 
[V:8]  [K:C] [K:clef=treble-8][M:2/1]z8 | 
[V:9]  [K:C] [K:clef=treble-8][M:2/1]z8 | 
[V:10]  [K:C] [K:clef=bass][M:2/1]D,4C,2D,2 | 
[V:11]  [K:C] [K:clef=bass][M:2/1]z8 | 
[V:12]  [K:C] [K:clef=bass][M:2/1]z8 | 
[V:1] z8 | 
[V:2] z8 | 
[V:3] z8 | 
[V:4] z8 | 
[V:5] z8 | 
[V:6] z8 | 
[V:7] z8 | 
[V:8] z8 | 
[V:9] d4c2d2 | 
[V:10] G,,4A,,2B,,2- | 
[V:11] z8 | 
[V:12] z8 | 
[V:1] z8 | 
[V:2] z8 | 
[V:3] z8 | 
[V:4] z8 | 
[V:5] d4c2d2 | 
[V:6] z8 | 
[V:7] z8 | 
[V:8] z8 | 
[V:9] G3FE2D2 | 
[V:10] B,,2G,,2A,,2B,,2- | 
[V:11] z8 | 
[V:12] z8 | 
[V:1] z8 | 
[V:2] z8 | 
[V:3] z8 | 
[V:4] d4c2d2 | 
[V:5] G3FE2D2 | 
[V:6] z8 | 
[V:7] z8 | 
[V:8] z8 | 
[V:9] z2B2A2GF | 
[V:10] B,,2G,,2A,,2B,,2 | 
[V:11] z8 | 
[V:12] z8 | 
[V:1] z8 | 
[V:2] z8 | 
[V:3] z8 | 
[V:4] G4A2B2- | 
[V:5] C2E2F2G2- | 
[V:6] z8 | 
[V:7] z8 | 
[V:8] z8 | 
[V:9] E2c4B2 | 
[V:10] C,3B,,A,,2G,,2 | 
[V:11] z8 | 
[V:12] z8 | 
[V:1] z8 | 
[V:2] z8 | 
[V:3] z8 | 
[V:4] B2G2A2B2- | 
[V:5] GFE2D2d2- | 
[V:6] z8 | 
[V:7] z8 | 
[V:8] z8 | 
[V:9] GABcd2G2- | 
[V:10] G,4F,2G,2 | 
[V:11] z8 | 
[V:12] z8 | 
[V:1] z8 | 
[V:2] z8 | 
[V:3] z8 | 
[V:4] B2G2A2B2 | 
[V:5] d2c2d4 | 
[V:6] z8 | 
[V:7] z8 | 
[V:8] z8 | 
[V:9] GFE2D2G2- | 
[V:10] G,,2G,2F,2G,2 | 
[V:11] z8 | 
[V:12] z8 | 
[V:1] z8 | 
[V:2] z8 | 
[V:3] z8 | 
[V:4] c3BA2G2 | 
[V:5] e4d2B2 | 
[V:6] z8 | 
[V:7] z8 | 
[V:8] z8 | 
[V:9] GFGEF2G2 | 
[V:10] C,4D,2E,2- | 
[V:11] z8 | 
[V:12] z8 | 
[V:1] z8 | 
[V:2] z8 | 
[V:3] z8 | 
[V:4] g4f2g2 | 
[V:5] e4d2B2 | 
[V:6] z8 | 
[V:7] z8 | 
[V:8] z8 | 
[V:9] c3BA2G2- | 
[V:10] E,2C,2D,2E,2 | 
[V:11] z8 | 
[V:12] z8 | 
[V:1] z8 | 
[V:2] z8 | 
[V:3] z8 | 
[V:4] G2g4^f2 | 
[V:5] c4d4 | 
[V:6] z8 | 
[V:7] z8 | 
[V:8] z8 | 
[V:9] GFG2A4 | 
[V:10] C,2E,2D,4 | 
[V:11] z8 | 
[V:12] z8 | 
[V:1] z8 | 
[V:2] z8 | 
[V:3] z8 | 
[V:4] g4z4 | 
[V:5] B4G4 | 
[V:6] z2d2d3c/B/ | 
[V:7] z8 | 
[V:8] z8 | 
[V:9] G3FD4 | 
[V:10] G,,8 | 
[V:11] z8 | 
[V:12] z8 | 
[V:1] z2d2d3c/B/ | 
[V:2] z8 | 
[V:3] z8 | 
[V:4] z8 | 
[V:5] z8 | 
[V:6] AGB4AG | 
[V:7] z8 | 
[V:8] z8 | 
[V:9] z8 | 
[V:10] z8 | 
[V:11] z8 | 
[V:12] z8 | 
[V:1] AGB4AG | 
[V:2] z2d2d3c/B/ | 
[V:3] z8 | 
[V:4] z8 | 
[V:5] z8 | 
[V:6] F2G3FG2 | 
[V:7] z8 | 
[V:8] z8 | 
[V:9] z8 | 
[V:10] z8 | 
[V:11] z8 | 
[V:12] z8 | 
[V:1] F2G3FG2 | 
[V:2] AGB4AG | 
[V:3] z2d2d3c/B/ | 
[V:4] z8 | 
[V:5] z8 | 
[V:6] D2G3ABc | 
[V:7] z8 | 
[V:8] z8 | 
[V:9] z8 | 
[V:10] z8 | 
[V:11] z8 | 
[V:12] z8 | 
[V:1] D2G3ABc | 
[V:2] F2G3FG2 | 
[V:3] AGB4AG | 
[V:4] z8 | 
[V:5] z8 | 
[V:6] d2G2G4 | 
[V:7] z8 | 
[V:8] z8 | 
[V:9] z8 | 
[V:10] z8 | 
[V:11] z8 | 
[V:12] z8 | 
[V:1] A2D2D3E | 
[V:2] D2G3ABc | 
[V:3] F2G3FG2 | 
[V:4] z8 | 
[V:5] z8 | 
[V:6] z2G2G4 | 
[V:7] z8 | 
[V:8] z8 | 
[V:9] z8 | 
[V:10] z8 | 
[V:11] z8 | 
[V:12] z8 | 
[V:1] F2D2G4 | 
[V:2] A2D2D3E | 
[V:3] D2G3ABc | 
[V:4] z8 | 
[V:5] z8 | 
[V:6] z2G2G4 | 
[V:7] z8 | 
[V:8] z8 | 
[V:9] z8 | 
[V:10] z8 | 
[V:11] z8 | 
[V:12] z8 | 
[V:1] C4A3B | 
[V:2] FGA3Bcd | 
[V:3] A3Bcdc2 | 
[V:4] z8 | 
[V:5] z8 | 
[V:6] F8- | 
[V:7] z8 | 
[V:8] z8 | 
[V:9] z8 | 
[V:10] z8 | 
[V:11] z8 | 
[V:12] z8 | 
[V:1] cdc2A3B | 
[V:2] c2A3Bcd | 
[V:3] A3Bcdc2 | 
[V:4] z8 | 
[V:5] z8 | 
[V:6] F8- | 
[V:7] z8 | 
[V:8] z8 | 
[V:9] z8 | 
[V:10] z8 | 
[V:11] z8 | 
[V:12] z8 | 
[V:1] cdcBAGFE | 
[V:2] cBAGF2A2- | 
[V:3] A3Bc4 | 
[V:4] z8 | 
[V:5] z8 | 
[V:6] F8 | 
[V:7] z8 | 
[V:8] z8 | 
[V:9] z8 | 
[V:10] z8 | 
[V:11] z8 | 
[V:12] z8 | 
[V:1] D4E4 | 
[V:2] AGG4FE | 
[V:3] B4c4 | 
[V:4] z8 | 
[V:5] z8 | 
[V:6] G4C4 | 
[V:7] z8 | 
[V:8] z8 | 
[V:9] z8 | 
[V:10] z8 | 
[V:11] z8 | 
[V:12] z8 | 
[V:1] D8 | 
[V:2] F3GF4 | 
[V:3] A4d4 | 
[V:4] z2d3ef2 | 
[V:5] A6GA | 
[V:6] D8 | 
[V:7] z8 | 
[V:8] z8 | 
[V:9] F6D2- | 
[V:10] D,8 | 
[V:11] z8 | 
[V:12] z8 | 
[V:1] z8 | 
[V:2] z8 | 
[V:3] z8 | 
[V:4] d2g3fed | 
[V:5] B4G4- | 
[V:6] z8 | 
[V:7] z8 | 
[V:8] z8 | 
[V:9] D4G4 | 
[V:10] G,,6C,2- | 
[V:11] z8 | 
[V:12] z8 | 
[V:1] z8 | 
[V:2] z8 | 
[V:3] z8 | 
[V:4] c3B/A/e4 | 
[V:5] G2c6 | 
[V:6] z8 | 
[V:7] z8 | 
[V:8] z8 | 
[V:9] E4A4- | 
[V:10] C,4A,,4 | 
[V:11] z8 | 
[V:12] z8 | 
[V:1] z8 | 
[V:2] z8 | 
[V:3] z8 | 
[V:4] f3ef2g2- | 
[V:5] A4d4- | 
[V:6] z8 | 
[V:7] z8 | 
[V:8] z8 | 
[V:9] A2D2D4- | 
[V:10] D,6G,,2 | 
[V:11] z8 | 
[V:12] z8 | 
[V:1] z8 | 
[V:2] z8 | 
[V:3] z8 | 
[V:4] g2fed4 | 
[V:5] d2G2G4 | 
[V:6] z8 | 
[V:7] z8 | 
[V:8] z8 | 
[V:9] D4d4- | 
[V:10] G,,8 | 
[V:11] z8 | 
[V:12] z8 | 
[V:1] z8 | 
[V:2] z8 | 
[V:3] z8 | 
[V:4] z4g4- | 
[V:5] B3AB2c2 | 
[V:6] z8 | 
[V:7] z8 | 
[V:8] z8 | 
[V:9] d2G2G4- | 
[V:10] G,6C,2 | 
[V:11] z8 | 
[V:12] z8 | 
[V:1] z8 | 
[V:2] z8 | 
[V:3] z8 | 
[V:4] g2e2e4 | 
[V:5] G2c3BAG | 
[V:6] z8 | 
[V:7] z8 | 
[V:8] z8 | 
[V:9] G4A4- | 
[V:10] C,8 | 
[V:11] z8 | 
[V:12] z8 | 
[V:1] z8 | 
[V:2] z8 | 
[V:3] z8 | 
[V:4] d6B2 | 
[V:5] F3EF2G2- | 
[V:6] z8 | 
[V:7] z8 | 
[V:8] z8 | 
[V:9] A2D2D4- | 
[V:10] D,6G,,2 | 
[V:11] z8 | 
[V:12] z8 | 
[V:1] z8 | 
[V:2] z8 | 
[V:3] z8 | 
[V:4] B2AGG2FE | 
[V:5] G2FED4 | 
[V:6] z8 | 
[V:7] z8 | 
[V:8] z8 | 
[V:9] D4d4- | 
[V:10] G,,8- | 
[V:11] z8 | 
[V:12] z8 | 
[V:1] z8 | 
[V:2] z8 | 
[V:3] z8 | 
[V:4] D4d4 | 
[V:5] z2G4FE | 
[V:6] z8 | 
[V:7] z8 | 
[V:8] z8 | 
[V:9] d2c2B4- | 
[V:10] G,,8 | 
[V:11] z8 | 
[V:12] z8 | 
[V:1] z8 | 
[V:2] z8 | 
[V:3] z8 | 
[V:4] z2d2d3c | 
[V:5] F4z2F2 | 
[V:6] z8 | 
[V:7] z8 | 
[V:8] z8 | 
[V:9] B2AGB2A2- | 
[V:10] D,8 | 
[V:11] z8 | 
[V:12] z8 | 
[V:1] z8 | 
[V:2] z8 | 
[V:3] z8 | 
[V:4] A2B2c4 | 
[V:5] E2D4C2 | 
[V:6] z8 | 
[V:7] z8 | 
[V:8] z8 | 
[V:9] AGG4^F2 | 
[V:10] C,2B,,2A,,4 | 
[V:11] z8 | 
[V:12] z8 | 
[V:1] z8 | 
[V:2] z8 | 
[V:3] z8 | 
[V:4] B2d3cBA | 
[V:5] D6G2- | 
[V:6] z8 | 
[V:7] z8 | 
[V:8] z8 | 
[V:9] G3ABcd2- | 
[V:10] G,,8- | 
[V:11] z8 | 
[V:12] z8 | 
[V:1] z8 | 
[V:2] z8 | 
[V:3] z8 | 
[V:4] G4d4 | 
[V:5] G2FED2G2 | 
[V:6] z8 | 
[V:7] z8 | 
[V:8] z8 | 
[V:9] dcBAB4 | 
[V:10] G,,8 | 
[V:11] z8 | 
[V:12] z8 | 
[V:1] D2G4FE | 
[V:2] G4D2G2- | 
[V:3] z2d3cBA | 
[V:4] z8 | 
[V:5] z8 | 
[V:6] G8- | 
[V:7] z8 | 
[V:8] z8 | 
[V:9] z8 | 
[V:10] z8 | 
[V:11] z8 | 
[V:12] z8 | 
[V:1] D4G4 | 
[V:2] G2FED4 | 
[V:3] G2c4B2 | 
[V:4] z8 | 
[V:5] z8 | 
[V:6] G8 | 
[V:7] z8 | 
[V:8] z8 | 
[V:9] z8 | 
[V:10] z8 | 
[V:11] z8 | 
[V:12] z8 | 
[V:1] E2C2G4 | 
[V:2] C4z2G2 | 
[V:3] z2c3B/A/B2 | 
[V:4] z8 | 
[V:5] z8 | 
[V:6] A4G4 | 
[V:7] z8 | 
[V:8] z8 | 
[V:9] z8 | 
[V:10] z8 | 
[V:11] z8 | 
[V:12] z8 | 
[V:1] z2c2B2G2 | 
[V:2] E2C2G4 | 
[V:3] c2C2D4 | 
[V:4] z8 | 
[V:5] z8 | 
[V:6] A4G4 | 
[V:7] z8 | 
[V:8] z8 | 
[V:9] z8 | 
[V:10] z8 | 
[V:11] z8 | 
[V:12] z8 | 
[V:1] z2c3B/A/B2 | 
[V:2] E2C2G4 | 
[V:3] C4z2D2 | 
[V:4] z8 | 
[V:5] z8 | 
[V:6] A4G4 | 
[V:7] z8 | 
[V:8] z8 | 
[V:9] z8 | 
[V:10] z8 | 
[V:11] z8 | 
[V:12] z8 | 
[V:1] A4D4 | 
[V:2] E2C2G4 | 
[V:3] C2c4B2 | 
[V:4] z8 | 
[V:5] z8 | 
[V:6] A4G4 | 
[V:7] z8 | 
[V:8] z8 | 
[V:9] z8 | 
[V:10] z8 | 
[V:11] z8 | 
[V:12] z8 | 
[V:1] A8 | 
[V:2] E4F4 | 
[V:3] c4z2c2- | 
[V:4] z8 | 
[V:5] z8 | 
[V:6] A4F4 | 
[V:7] z8 | 
[V:8] z8 | 
[V:9] z8 | 
[V:10] z8 | 
[V:11] z8 | 
[V:12] z8 | 
[V:1] G8 | 
[V:2] D8 | 
[V:3] c2BAB4 | 
[V:4] z8 | 
[V:5] z8 | 
[V:6] G8 | 
[V:7] z8 | 
[V:8] z8 | 
[V:9] z8 | 
[V:10] z8 | 
[V:11] z8 | 
[V:12] z8 | 
[V:1] z8 | 
[V:2] z8 | 
[V:3] z8 | 
[V:4] z2e4e2 | 
[V:5] G4E4 | 
[V:6] z8 | 
[V:7] z8 | 
[V:8] z8 | 
[V:9] c6BA | 
[V:10] C,8 | 
[V:11] z8 | 
[V:12] z8 | 
[V:1] z8 | 
[V:2] z8 | 
[V:3] z8 | 
[V:4] d2f4ed | 
[V:5] F4D4 | 
[V:6] z8 | 
[V:7] z8 | 
[V:8] z8 | 
[V:9] B2A3GG2- | 
[V:10] D,4B,,4 | 
[V:11] z8 | 
[V:12] z8 | 
[V:1] z8 | 
[V:2] z8 | 
[V:3] z8 | 
[V:4] c2e4dc | 
[V:5] E4C4 | 
[V:6] z8 | 
[V:7] z8 | 
[V:8] z8 | 
[V:9] G2^FE^F4 | 
[V:10] C,4A,,4 | 
[V:11] z8 | 
[V:12] z8 | 
[V:1] z8 | 
[V:2] z8 | 
[V:3] z8 | 
[V:4] B4c4 | 
[V:5] D4E4 | 
[V:6] z8 | 
[V:7] z8 | 
[V:8] z8 | 
[V:9] G6A2- | 
[V:10] G,,4C,4 | 
[V:11] z8 | 
[V:12] z8 | 
[V:1] z8 | 
[V:2] z8 | 
[V:3] z8 | 
[V:4] A2d3cBA | 
[V:5] F6D2 | 
[V:6] z8 | 
[V:7] z8 | 
[V:8] z8 | 
[V:9] A2F2D2G2- | 
[V:10] D,4B,,4 | 
[V:11] z8 | 
[V:12] z8 | 
[V:1] z8 | 
[V:2] z8 | 
[V:3] z8 | 
[V:4] G4z2c2- | 
[V:5] E4F4 | 
[V:6] z8 | 
[V:7] z8 | 
[V:8] z8 | 
[V:9] G2E2C4 | 
[V:10] C,4A,,4 | 
[V:11] z8 | 
[V:12] z8 | 
[V:1] z8 | 
[V:2] z8 | 
[V:3] z8 | 
[V:4] c2BAB4 | 
[V:5] G8 | 
[V:6] z8 | 
[V:7] z8 | 
[V:8] z8 | 
[V:9] D8 | 
[V:10] G,,8 | 
[V:11] z8 | 
[V:12] z8 | 
[V:1] G4GFED | 
[V:2] C4CDEF | 
[V:3] c3de2e2- | 
[V:4] z8 | 
[V:5] z8 | 
[V:6] C8 | 
[V:7] z8 | 
[V:8] z8 | 
[V:9] z8 | 
[V:10] z8 | 
[V:11] z8 | 
[V:12] z8 | 
[V:1] E4D4 | 
[V:2] G6FE | 
[V:3] e2dcB4 | 
[V:4] z8 | 
[V:5] z8 | 
[V:6] CDEFG4 | 
[V:7] z8 | 
[V:8] z8 | 
[V:9] z8 | 
[V:10] z8 | 
[V:11] z8 | 
[V:12] z8 | 
[V:1] GABcdBc2- | 
[V:2] D2G4E2 | 
[V:3] d3cB2A2- | 
[V:4] z8 | 
[V:5] z8 | 
[V:6] G2G4A2 | 
[V:7] z8 | 
[V:8] z8 | 
[V:9] z8 | 
[V:10] z8 | 
[V:11] z8 | 
[V:12] z8 | 
[V:1] cGB2A4 | 
[V:2] F2D2D4 | 
[V:3] AGG2F4 | 
[V:4] z8 | 
[V:5] z8 | 
[V:6] F2G2D4 | 
[V:7] z8 | 
[V:8] z8 | 
[V:9] z8 | 
[V:10] z8 | 
[V:11] z8 | 
[V:12] z8 | 
[V:1] z8 | 
[V:2] z8 | 
[V:3] z8 | 
[V:4] z2B2G2B2- | 
[V:5] z4B4 | 
[V:6] z8 | 
[V:7] z8 | 
[V:8] z8 | 
[V:9] D8 | 
[V:10] G,,8 | 
[V:11] z8 | 
[V:12] z8 | 
[V:1] z8 | 
[V:2] z8 | 
[V:3] z8 | 
[V:4] Bcded2G2 | 
[V:5] G2B3cde | 
[V:6] z8 | 
[V:7] z8 | 
[V:8] z8 | 
[V:9] B4G2B2- | 
[V:10] G,,4G,,4 | 
[V:11] z8 | 
[V:12] z8 | 
[V:1] z8 | 
[V:2] z8 | 
[V:3] z8 | 
[V:4] B3cded2 | 
[V:5] d2G2B3c | 
[V:6] z8 | 
[V:7] z8 | 
[V:8] z8 | 
[V:9] Bcded2G2 | 
[V:10] G,,8- | 
[V:11] z8 | 
[V:12] z8 | 
[V:1] z8 | 
[V:2] z8 | 
[V:3] z8 | 
[V:4] G3AB4 | 
[V:5] ded2G4 | 
[V:6] z8 | 
[V:7] z8 | 
[V:8] z8 | 
[V:9] B3cded2 | 
[V:10] G,,8 | 
[V:11] z8 | 
[V:12] z8 | 
[V:1] z2B2G2B2- | 
[V:2] z4B4 | 
[V:3] G4D4 | 
[V:4] z8 | 
[V:5] z8 | 
[V:6] G8 | 
[V:7] z8 | 
[V:8] z8 | 
[V:9] z8 | 
[V:10] z8 | 
[V:11] z8 | 
[V:12] z8 | 
[V:1] Bcded2G2 | 
[V:2] G2B3cde | 
[V:3] B4G2B2- | 
[V:4] z8 | 
[V:5] z8 | 
[V:6] G4G4 | 
[V:7] z8 | 
[V:8] z8 | 
[V:9] z8 | 
[V:10] z8 | 
[V:11] z8 | 
[V:12] z8 | 
[V:1] B3cded2 | 
[V:2] d2G2B3c | 
[V:3] Bcded2G2 | 
[V:4] z8 | 
[V:5] z8 | 
[V:6] G8- | 
[V:7] z8 | 
[V:8] z8 | 
[V:9] z8 | 
[V:10] z8 | 
[V:11] z8 | 
[V:12] z8 | 
[V:1] G3AB4 | 
[V:2] ded2G4 | 
[V:3] B3cded2 | 
[V:4] z8 | 
[V:5] z8 | 
[V:6] G8 | 
[V:7] z8 | 
[V:8] z8 | 
[V:9] z8 | 
[V:10] z8 | 
[V:11] z8 | 
[V:12] z8 | 
[V:1] z8 | 
[V:2] z8 | 
[V:3] z8 | 
[V:4] d3efge2- | 
[V:5] B3GA2G2- | 
[V:6] z8 | 
[V:7] z8 | 
[V:8] z8 | 
[V:9] G2d3cBA | 
[V:10] z2G,2F,2G,2- | 
[V:11] z8 | 
[V:12] z8 | 
[V:1] z8 | 
[V:2] z8 | 
[V:3] z8 | 
[V:4] edg4f2 | 
[V:5] GABcd4 | 
[V:6] z8 | 
[V:7] z8 | 
[V:8] z8 | 
[V:9] G4A4 | 
[V:10] G,2E,2D,4 | 
[V:11] z8 | 
[V:12] z8 | 
[V:1] G2d3cBA | 
[V:2] B3GA2G2- | 
[V:3] D3EFGE2 | 
[V:4] z8 | 
[V:5] z8 | 
[V:6] G4F2G2- | 
[V:7] z8 | 
[V:8] z8 | 
[V:9] z8 | 
[V:10] z8 | 
[V:11] z8 | 
[V:12] z8 | 
[V:1] G4A4 | 
[V:2] GABcd4 | 
[V:3] D2G4F2 | 
[V:4] z8 | 
[V:5] z8 | 
[V:6] G2E2D4 | 
[V:7] z8 | 
[V:8] z8 | 
[V:9] z8 | 
[V:10] z8 | 
[V:11] z8 | 
[V:12] z8 | 
[V:1] z8 | 
[V:2] z8 | 
[V:3] z8 | 
[V:4] d3efge2- | 
[V:5] B3GA2G2- | 
[V:6] z8 | 
[V:7] z8 | 
[V:8] z8 | 
[V:9] G2d3cBA | 
[V:10] z2G,2F,2G,2- | 
[V:11] z8 | 
[V:12] z8 | 
[V:1] z8 | 
[V:2] z8 | 
[V:3] z8 | 
[V:4] edg4f2 | 
[V:5] GABcd4 | 
[V:6] z8 | 
[V:7] z8 | 
[V:8] z8 | 
[V:9] G4A4 | 
[V:10] G,2E,2D,4 | 
[V:11] z8 | 
[V:12] z8 | 
[V:1] G2d3cBA | 
[V:2] B3GA2G2- | 
[V:3] D3EFGE2 | 
[V:4] z8 | 
[V:5] z8 | 
[V:6] G4F2G2- | 
[V:7] z8 | 
[V:8] z8 | 
[V:9] z8 | 
[V:10] z8 | 
[V:11] z8 | 
[V:12] z8 | 
[V:1] G4A4 | 
[V:2] GABcd4 | 
[V:3] D2G4F2 | 
[V:4] z8 | 
[V:5] z8 | 
[V:6] G2E2D4 | 
[V:7] z8 | 
[V:8] z8 | 
[V:9] z8 | 
[V:10] z8 | 
[V:11] z8 | 
[V:12] z8 | 
[V:1] z8 | 
[V:2] z8 | 
[V:3] z8 | 
[V:4] g4d2g2- | 
[V:5] z2d3cBA | 
[V:6] z8 | 
[V:7] z8 | 
[V:8] z8 | 
[V:9] G4z4 | 
[V:10] G,,4G,,2G,,2- | 
[V:11] z8 | 
[V:12] z8 | 
[V:1] z8 | 
[V:2] z8 | 
[V:3] z8 | 
[V:4] g2f2g4 | 
[V:5] B2A3GG2- | 
[V:6] z8 | 
[V:7] z8 | 
[V:8] z8 | 
[V:9] z2d3cBA | 
[V:10] G,,2D,2B,,2G,,2 | 
[V:11] z8 | 
[V:12] z8 | 
[V:1] z8 | 
[V:2] z8 | 
[V:3] z8 | 
[V:4] z2d3cBA | 
[V:5] G2^F2G2d2- | 
[V:6] z8 | 
[V:7] z8 | 
[V:8] z8 | 
[V:9] B2A3GG2- | 
[V:10] D,4G,,4- | 
[V:11] z8 | 
[V:12] z8 | 
[V:1] z8 | 
[V:2] z8 | 
[V:3] z8 | 
[V:4] B2A3GG2- | 
[V:5] dcd2B2c2 | 
[V:6] z8 | 
[V:7] z8 | 
[V:8] z8 | 
[V:9] G2F2G4 | 
[V:10] G,,2D,2E,2C,2 | 
[V:11] z8 | 
[V:12] z8 | 
[V:1] z8 | 
[V:2] z8 | 
[V:3] z8 | 
[V:4] G2^F2G4 | 
[V:5] A2A2G4 | 
[V:6] z8 | 
[V:7] z8 | 
[V:8] z8 | 
[V:9] D8 | 
[V:10] D,4G,,4 | 
[V:11] z8 | 
[V:12] z8 | 
[V:1] B4z4 | 
[V:2] z2d3cBA | 
[V:3] G4D2G2- | 
[V:4] z8 | 
[V:5] z8 | 
[V:6] G4G2G2- | 
[V:7] z8 | 
[V:8] z8 | 
[V:9] z8 | 
[V:10] z8 | 
[V:11] z8 | 
[V:12] z8 | 
[V:1] z2d3cBA | 
[V:2] B2A3GG2- | 
[V:3] G2F2G4 | 
[V:4] z8 | 
[V:5] z8 | 
[V:6] G2d2B2G2 | 
[V:7] z8 | 
[V:8] z8 | 
[V:9] z8 | 
[V:10] z8 | 
[V:11] z8 | 
[V:12] z8 | 
[V:1] B2A3GG2- | 
[V:2] G2^F2G2d2- | 
[V:3] z2d3cBA | 
[V:4] z8 | 
[V:5] z8 | 
[V:6] d4G4- | 
[V:7] z8 | 
[V:8] z8 | 
[V:9] z8 | 
[V:10] z8 | 
[V:11] z8 | 
[V:12] z8 | 
[V:1] G2F2G4 | 
[V:2] dcd2B2c2 | 
[V:3] B2A3GG2- | 
[V:4] z8 | 
[V:5] z8 | 
[V:6] G2d2e2c2 | 
[V:7] z8 | 
[V:8] z8 | 
[V:9] z8 | 
[V:10] z8 | 
[V:11] z8 | 
[V:12] z8 | 
[V:1] D8 | 
[V:2] A4z2G2 | 
[V:3] G2^F2G2d2- | 
[V:4] z8 | 
[V:5] z8 | 
[V:6] d4G4 | 
[V:7] z8 | 
[V:8] z8 | 
[V:9] z8 | 
[V:10] z8 | 
[V:11] z8 | 
[V:12] z8 | 
[V:1] z4z2d2- | 
[V:2] d3cBAB2- | 
[V:3] dcBAG3F/E/ | 
[V:4] d4d2d2 | 
[V:5] D4D2D2 | 
[V:6] G6G2 | 
[V:7] z8 | 
[V:8] z8 | 
[V:9] B4B2B2 | 
[V:10] G,,4G,,2G,,2 | 
[V:11] z8 | 
[V:12] z8 | 
[V:1] dcBAB2A2- | 
[V:2] BAG2F4 | 
[V:3] D8 | 
[V:4] d4z2f2 | 
[V:5] D3EFGA2 | 
[V:6] G4D2F2 | 
[V:7] z8 | 
[V:8] z8 | 
[V:9] B4d4 | 
[V:10] G,,4D,4 | 
[V:11] z8 | 
[V:12] z8 | 
[V:1] AGG4^F2 | 
[V:2] z4A4 | 
[V:3] z4[D4d4] & G,4x4 | 
[V:4] e4d3c | 
[V:5] G2E2F3D | 
[V:6] G4D4 | 
[V:7] z8 | 
[V:8] z8 | 
[V:9] B2c2A4 | 
[V:10] E,2C,2D,4 | 
[V:11] z8 | 
[V:12] z8 | 
[V:1] G8 ||  
[V:2] B8 ||  
[V:3] D8 & d8 ||  
[V:4] B8 ||  
[V:5] D8 ||  
[V:6] d8 ||  
[V:7] z8 ||  
[V:8] z8 ||  
[V:9] G8 ||  
[V:10] G,,8 ||  
[V:11] z8 ||  
[V:12] z8 ||  
[V:1]  [K:C] [K:clef=treble][M:3/1]z12 | 
[V:2]  [K:C] [K:clef=treble][M:3/1]z12 | 
[V:3]  [K:C] [K:clef=treble][M:3/1]z12 | 
[V:4]  [K:C] [K:clef=treble-8][M:3/1]z12 | 
[V:5]  [K:C] [K:clef=treble-8][M:3/1]z12 | 
[V:6]  [K:C] [K:clef=treble-8][M:3/1]z12 | 
[V:7]  [K:C] [K:clef=treble-8][M:3/1]z12 | 
[V:8]  [K:C] [K:clef=treble-8][M:3/1]z12 | 
[V:9]  [K:C] [K:clef=treble-8][M:3/1]z12 | 
[V:10]  [K:C] [K:clef=bass][M:3/1]D,4D,4B,,4 | 
[V:11]  [K:C] [K:clef=bass][M:3/1]z12 | 
[V:12]  [K:C] [K:clef=bass][M:3/1]z12 | 
[V:1] z12 | 
[V:2] z12 | 
[V:3] z12 | 
[V:4] d4d4B4 | 
[V:5] z12 | 
[V:6] z12 | 
[V:7] z12 | 
[V:8] z12 | 
[V:9] z12 | 
[V:10] D,8E,4 | 
[V:11] z12 | 
[V:12] z12 | 
[V:1] z12 | 
[V:2] d4d4B4 | 
[V:3] z12 | 
[V:4] d8e4 | 
[V:5] z12 | 
[V:6] z12 | 
[V:7] z12 | 
[V:8] z12 | 
[V:9] z12 | 
[V:10] D,4D,4z4 | 
[V:11] z12 | 
[V:12] z12 | 
[V:1] z12 | 
[V:2] d8e4 | 
[V:3] z12 | 
[V:4] d4d4z4 | 
[V:5] z12 | 
[V:6] G4G4E4 | 
[V:7] z12 | 
[V:8] z12 | 
[V:9] z12 | 
[V:10] G,,8C,4 | 
[V:11] z12 | 
[V:12] z12 | 
[V:1] G4G4E4 | 
[V:2] d4d4z4 | 
[V:3] z12 | 
[V:4] B4d4c4 | 
[V:5] z12 | 
[V:6] G8A4 | 
[V:7] z12 | 
[V:8] z12 | 
[V:9] z12 | 
[V:10] G,,6A,,B,,C,2A,,2 | 
[V:11] z12 | 
[V:12] z12 | 
[V:1] G8A4 | 
[V:2] c6A2c2d2 | 
[V:3] z12 | 
[V:4] e6d2c4 | 
[V:5] z12 | 
[V:6] G4G4z4 | 
[V:7] z12 | 
[V:8] z12 | 
[V:9] z12 | 
[V:10] E,8E,4 | 
[V:11] C,4C,4A,,4 | 
[V:12] z12 | 
[V:1] G4G4z4 | 
[V:2] e8d4 | 
[V:3] z12 | 
[V:4] G8d4 | 
[V:5] z12 | 
[V:6] C4G4F4 | 
[V:7] z12 | 
[V:8] z12 | 
[V:9] c4c4A4 | 
[V:10] E,8F,4 | 
[V:11] C,8D,4 | 
[V:12] z12 | 
[V:1] E8F4 | 
[V:2] e8d4 | 
[V:3] c4c4A4 | 
[V:4] G6A2F4 | 
[V:5] z12 | 
[V:6] E3FG4D4 | 
[V:7] z12 | 
[V:8] z12 | 
[V:9] c8d4 | 
[V:10] G,4C,4F,4 | 
[V:11] C,4C,4z4 | 
[V:12] z12 | 
[V:1] G6A2B4 | 
[V:2] G4c4z4 | 
[V:3] c8d4 | 
[V:4] z4c4B4 | 
[V:5] G8G4 | 
[V:6] z2E2C4G4 | 
[V:7] z12 | 
[V:8] z12 | 
[V:9] c4c4z4 | 
[V:10] E,8D,4 | 
[V:11] C,8G,,4 | 
[V:12] z12 | 
[V:1] G2G4^FEF4 | 
[V:2] e8A4 | 
[V:3] c4c4z4 | 
[V:4] c4G4d4 | 
[V:5] E4G4A4 | 
[V:6] G8D4 | 
[V:7] z12 | 
[V:8] z12 | 
[V:9] G4c4z2A2 | 
[V:10] E,4C,4F,4 | 
[V:11] C,4E,4D,4 | 
[V:12] z12 | 
[V:1] G2B4AGA4 | 
[V:2] d8d4 | 
[V:3] B4G2G4^F2 | 
[V:4] d2g3fdef2d2 | 
[V:5] G4G4z4 | 
[V:6] z2G2B4A4 | 
[V:7] z12 | 
[V:8] d8d4 | 
[V:9] B3cd2G2D4 | 
[V:10] D,4G,,4z4 | 
[V:11] G,,8D,4 | 
[V:12] z12 | 
[V:1] B4G8 | 
[V:2] d4B4c4 | 
[V:3] G4d4G4 | 
[V:4] d6G4A2 | 
[V:5] B8E4 | 
[V:6] G4B4G4 | 
[V:7] G4G4E4 | 
[V:8] B4d4e4 | 
[V:9] D2EFG4z4 | 
[V:10] D,8C,4 | 
[V:11] G,,8C,4 | 
[V:12] z12 | 
[V:1] d6cBA4 | 
[V:2] B4G2G4^F2 | 
[V:3] G4D2G2D4 | 
[V:4] B6c2d4 | 
[V:5] B2G4D2D4 | 
[V:6] G2D2G4z2D2 | 
[V:7] G8A4 | 
[V:8] d4d4z4 | 
[V:9] d8d4 | 
[V:10] D,6E,2F,4 | 
[V:11] G,,8D,4 | 
[V:12] D,8D,4 | 
[V:1] B8B4 | 
[V:2] G8G4 | 
[V:3] d8z4 | 
[V:4] d8B4 | 
[V:5] G4B6c2 | 
[V:6] B6G2G4 | 
[V:7] G4G4z4 | 
[V:8] z12 | 
[V:9] D4G8 | 
[V:10] D,4z2B,,4G,,2 | 
[V:11] G,,8G,,4 | 
[V:12] B,,4D,4E,4 | 
[V:1] B4d4c4 | 
[V:2] G8A4 | 
[V:3] d4B4e4 | 
[V:4] G6G4FE | 
[V:5] d4G4z4 | 
[V:6] d8A4 | 
[V:7] z12 | 
[V:8] B8c4 | 
[V:9] D4G4C4 | 
[V:10] B,,8A,,4 | 
[V:11] G,,8C,4 | 
[V:12] D,4D,4z4 | 
[V:1] B4G4A4 | 
[V:2] B2c2d4z2A2 | 
[V:3] d4B2G2c4 | 
[V:4] G4z2D2A4 | 
[V:5] D8F4 | 
[V:6] D4G4D4 | 
[V:7] z12 | 
[V:8] d8c4 | 
[V:9] G8z4 | 
[V:10] D,4G,,2G,4F,2 | 
[V:11] G,,4B,,4A,,4 | 
[V:12] B,,8C,4 | 
[V:1] B2c2d4z4 | 
[V:2] D2E2F4c4 | 
[V:3] G4A6GF | 
[V:4] z4A4c4- | 
[V:5] D8z4 | 
[V:6] G4D4z4 | 
[V:7] z12 | 
[V:8] B4A8 | 
[V:9] d8e4- | 
[V:10] G,4F,4E,4 | 
[V:11] G,,4D,4A,,4 | 
[V:12] D,8C,4- | 
[V:1] c8c4 | 
[V:2] G4A8 | 
[V:3] E8A4 | 
[V:4] c4c4c4 | 
[V:5] C8C4 | 
[V:6] E4A8 | 
[V:7] E8F4 | 
[V:8] G4z4z4 | 
[V:9] e2d2e4c4 | 
[V:10] C,4z4z4 | 
[V:11] E,4C,8 | 
[V:12] C,4A,,8 | 
[V:1] B4d6c2 | 
[V:2] D12 | 
[V:3] B8B4 | 
[V:4] G2A2B2c2d4 | 
[V:5] G6A2B4 | 
[V:6] d6c2B2A2 | 
[V:7] G8F4 | 
[V:8] z12 | 
[V:9] z2g4fed4 | 
[V:10] z12 | 
[V:11] D,12 | 
[V:12] G,,12 | 
[V:1] c8B4 | 
[V:2] G8G4 | 
[V:3] c4d8 | 
[V:4] G4d8 | 
[V:5] z4G2A2B4 | 
[V:6] G4z4G4 | 
[V:7] E4D8 | 
[V:8] z12 | 
[V:9] e2g4fed4 | 
[V:10] G,8G,4 | 
[V:11] z12 | 
[V:12] G,,12 | 
[V:1] c8z4 | 
[V:2] G8z4 | 
[V:3] e8z4 | 
[V:4] G4z4z4 | 
[V:5] G8z4 | 
[V:6] c8z4 | 
[V:7] C8z4 | 
[V:8] c8d4 | 
[V:9] z2G4c4B2 | 
[V:10] G,6F,E,D,4 | 
[V:11] z12 | 
[V:12] E,8F,4 | 
[V:1] z12 | 
[V:2] z12 | 
[V:3] z12 | 
[V:4] z12 | 
[V:5] G4B6A2 | 
[V:6] z12 | 
[V:7] z12 | 
[V:8] e8d4 | 
[V:9] c4z4z4 | 
[V:10] C,4G,,4B,,4 | 
[V:11] z12 | 
[V:12] G,8F,4 | 
[V:1] z12 | 
[V:2] z12 | 
[V:3] z12 | 
[V:4] z12 | 
[V:5] G2F2G2D2G4 | 
[V:6] z12 | 
[V:7] z12 | 
[V:8] c6BAB4 | 
[V:9] c4d6ed | 
[V:10] C,4G,,8 | 
[V:11] G,8G,4 | 
[V:12] E,4D,8 | 
[V:1] z12 | 
[V:2] z12 | 
[V:3] z12 | 
[V:4] z12 | 
[V:5] E8F4 | 
[V:6] G6c4B2 | 
[V:7] c8d4 | 
[V:8] c8z4 | 
[V:9] e8z4 | 
[V:10] C,8z4 | 
[V:11] G,6F,E,D,4 | 
[V:12] C,8z4 | 
[V:1] z12 | 
[V:2] z12 | 
[V:3] z12 | 
[V:4] z12 | 
[V:5] G8F4 | 
[V:6] c4z4z4 | 
[V:7] e8d4 | 
[V:8] z12 | 
[V:9] G4B6A2 | 
[V:10] z12 | 
[V:11] C,4G,,4B,,4 | 
[V:12] z12 | 
[V:1] z12 | 
[V:2] z12 | 
[V:3] z12 | 
[V:4] z12 | 
[V:5] E4D8 | 
[V:6] c4d6ed | 
[V:7] c6BAB4 | 
[V:8] z12 | 
[V:9] G2F2G2D2G4 | 
[V:10] G,8G,4 | 
[V:11] C,4G,,8 | 
[V:12] z12 | 
[V:1] z12 | 
[V:2] z12 | 
[V:3] z12 | 
[V:4] c8d4 | 
[V:5] C6c4B2 | 
[V:6] e8z4 | 
[V:7] c8z4 | 
[V:8] z12 | 
[V:9] E8F4 | 
[V:10] G,6F,E,D,4 | 
[V:11] C,8z4 | 
[V:12] z12 | 
[V:1] z12 | 
[V:2] z12 | 
[V:3] z12 | 
[V:4] e8d4 | 
[V:5] c4z4z4 | 
[V:6] G4B6A2 | 
[V:7] z12 | 
[V:8] z12 | 
[V:9] G8F4 | 
[V:10] C,4G,,4B,,4 | 
[V:11] z12 | 
[V:12] z12 | 
[V:1] z12 | 
[V:2] z12 | 
[V:3] z12 | 
[V:4] c6BAB4 | 
[V:5] c4d6ed | 
[V:6] G2F2G2D2G4 | 
[V:7] z12 | 
[V:8] z12 | 
[V:9] E4D8 | 
[V:10] C,4G,,8 | 
[V:11] z12 | 
[V:12] z12 | 
[V:1] c8d4 | 
[V:2] G6c4B2 | 
[V:3] z12 | 
[V:4] c4e4f4 | 
[V:5] e8d4 | 
[V:6] E8z4 | 
[V:7] z12 | 
[V:8] z12 | 
[V:9] C8z4 | 
[V:10] C,8z4 | 
[V:11] z12 | 
[V:12] z12 | 
[V:1] e8d4 | 
[V:2] c4z4z4 | 
[V:3] G4B6A2 | 
[V:4] g8f4 | 
[V:5] c4G4B4 | 
[V:6] z12 | 
[V:7] z12 | 
[V:8] z12 | 
[V:9] z12 | 
[V:10] z12 | 
[V:11] z12 | 
[V:12] z12 | 
[V:1] c6BAB4 | 
[V:2] c4d6ed | 
[V:3] G2F2G2D2G4 | 
[V:4] e4d8 | 
[V:5] c4G8 | 
[V:6] z12 | 
[V:7] z12 | 
[V:8] z12 | 
[V:9] z12 | 
[V:10] z12 | 
[V:11] z12 | 
[V:12] z12 | 
[V:1] c8G4 | 
[V:2] e6c2e4 | 
[V:3] E2F2G4c4 | 
[V:4] c4e3fg4 | 
[V:5] g8e4 | 
[V:6] E4C4G2A2 | 
[V:7] G8G4 | 
[V:8] z12 | 
[V:9] c6G6 | 
[V:10] G,4E,4C,4 | 
[V:11] C,8C,4 | 
[V:12] z12 | 
[V:1] d8c4 | 
[V:2] d2B4G2G4 | 
[V:3] B2G3AB2E2G2- | 
[V:4] g2fed4z4 | 
[V:5] z2d2g4c4 | 
[V:6] B3cd4G4 | 
[V:7] G8E4 | 
[V:8] B8c4 | 
[V:9] G3AB2D2E2C2 | 
[V:10] D,8z4 | 
[V:11] G,,8C,4 | 
[V:12] D,4B,,4E,4 | 
[V:1] B4d4c4 | 
[V:2] z2B4G2G4 | 
[V:3] GFD2G4z2G2- | 
[V:4] g6fee4 | 
[V:5] z4G4G4 | 
[V:6] B2B3cd2G4 | 
[V:7] G3FD2G4E2 | 
[V:8] d6B2c4 | 
[V:9] z2G3FD2E2C2 | 
[V:10] G,,8C,4 | 
[V:11] G,,8z4 | 
[V:12] D,4B,,4E,4 | 
[V:1] B4d4c4 | 
[V:2] z2G2B4G4 | 
[V:3] GFD2G4z2G2- | 
[V:4] B4G4z4 | 
[V:5] G2B3cd2G2c2 | 
[V:6] B6G6 | 
[V:7] G8E4 | 
[V:8] d4B4c4 | 
[V:9] z2G3FD2z2C2 | 
[V:10] G,,8z4 | 
[V:11] G,,8C,4 | 
[V:12] D,8E,4 | 
[V:1] B8c4 | 
[V:2] z2d4B2G4 | 
[V:3] GFD2G4G3A | 
[V:4] g6g2e2g2- | 
[V:5] z2B3cdGg2c2 | 
[V:6] B3cd4G4 | 
[V:7] G3FD2G4E2 | 
[V:8] d8c4 | 
[V:9] G2G3FD2E2C2 | 
[V:10] G,,8C,4 | 
[V:11] G,,8z4 | 
[V:12] D,4B,,4E,4 | 
[V:1] d8c4 | 
[V:2] z2D2F3GA4 | 
[V:3] B2G2A4F4 | 
[V:4] gfd3ef3ec2 | 
[V:5] g4z4c4 | 
[V:6] d6cBA4 | 
[V:7] G4D4A4 | 
[V:8] B4A8 | 
[V:9] z2G2F4f4 | 
[V:10] G,,4D,4z4 | 
[V:11] D,4D,3E,F,4 | 
[V:12] D,8z4 | 
[V:1] B4A6G2 | 
[V:2] z4d8 | 
[V:3] z2D2F3GA4 | 
[V:4] g3fd4z4 | 
[V:5] G4A4D4 | 
[V:6] d6f4ed | 
[V:7] B3cd4A4 | 
[V:8] G4d8 | 
[V:9] d3cA6D2- | 
[V:10] z4D,4F,4 | 
[V:11] G,4F,4D,4 | 
[V:12] z4D,8 | 
[V:1] G8^F4 | 
[V:2] d6cBA4 | 
[V:3] B4d4D4 | 
[V:4] z2d3ef3edc | 
[V:5] G4z4D4 | 
[V:6] d8d4 | 
[V:7] z4A8 | 
[V:8] B4A8 | 
[V:9] D4F3GA2D2 | 
[V:10] G,4D,8 | 
[V:11] G,,4D,8 | 
[V:12] D,6E,2F,4 | 
[V:1] [M:2/1]G4z4 | 
[V:2] [M:2/1]d4z4 | 
[V:3] [M:2/1]B4z4 | 
[V:4] [M:2/1]B4z4 | 
[V:5] [M:2/1]d4z4 | 
[V:6] [M:2/1]d4z4 | 
[V:7] [M:2/1]B4z4 | 
[V:8] [M:2/1]G4z4 | 
[V:9] [M:2/1]D4z4 | 
[V:10] [M:2/1]D,4z4 | 
[V:11] [M:2/1]G,,4z4 | 
[V:12] [M:2/1]D,4z4 | 
[V:1] z8 | 
[V:2] B4c2d2- | 
[V:3] z8 | 
[V:4] z2g2e2f2 | 
[V:5] z8 | 
[V:6] z8 | 
[V:7] z8 | 
[V:8] z8 | 
[V:9] z8 | 
[V:10] z8 | 
[V:11] z8 | 
[V:12] z8 | 
[V:1] z8 | 
[V:2] d2B2A4 | 
[V:3] z8 | 
[V:4] d2g4f2 | 
[V:5] z8 | 
[V:6] z8 | 
[V:7] z8 | 
[V:8] z8 | 
[V:9] z8 | 
[V:10] z8 | 
[V:11] z8 | 
[V:12] z8 | 
[V:1] z8 | 
[V:2] z2GABGd2- | 
[V:3] z8 | 
[V:4] g3fgef2- | 
[V:5] z8 | 
[V:6] z8 | 
[V:7] z8 | 
[V:8] z8 | 
[V:9] z8 | 
[V:10] z8 | 
[V:11] z8 | 
[V:12] z8 | 
[V:1] z8 | 
[V:2] dcc3BBA | 
[V:3] z8 | 
[V:4] fce2d3c/B/ | 
[V:5] z8 | 
[V:6] z8 | 
[V:7] z8 | 
[V:8] z8 | 
[V:9] z8 | 
[V:10] z8 | 
[V:11] z8 | 
[V:12] z8 | 
[V:1] z8 | 
[V:2] c3Bc2B2- | 
[V:3] z8 | 
[V:4] ABcdecd2- | 
[V:5] z8 | 
[V:6] z8 | 
[V:7] z8 | 
[V:8] z8 | 
[V:9] z8 | 
[V:10] z8 | 
[V:11] z8 | 
[V:12] z8 | 
[V:1] z8 | 
[V:2] BAA4^G2 | 
[V:3] z8 | 
[V:4] dcBAB4 | 
[V:5] z8 | 
[V:6] z8 | 
[V:7] z8 | 
[V:8] z8 | 
[V:9] z8 | 
[V:10] z8 | 
[V:11] z8 | 
[V:12] z8 | 
[V:1] z8 | 
[V:2] A4z2A2 | 
[V:3] z8 | 
[V:4] z2A2d3c | 
[V:5] z8 | 
[V:6] z8 | 
[V:7] z8 | 
[V:8] z8 | 
[V:9] z8 | 
[V:10] z8 | 
[V:11] z8 | 
[V:12] z8 | 
[V:1] z8 | 
[V:2] d3cBAG2- | 
[V:3] z8 | 
[V:4] BAG4c2- | 
[V:5] z8 | 
[V:6] z8 | 
[V:7] z8 | 
[V:8] z8 | 
[V:9] z8 | 
[V:10] z8 | 
[V:11] z8 | 
[V:12] z8 | 
[V:1] z8 | 
[V:2] G2c2B2A2- | 
[V:3] z8 | 
[V:4] cBA2G2d2 | 
[V:5] z8 | 
[V:6] z8 | 
[V:7] z8 | 
[V:8] z8 | 
[V:9] z8 | 
[V:10] z8 | 
[V:11] z8 | 
[V:12] z8 | 
[V:1] z8 | 
[V:2] AGG4^F2 | 
[V:3] z8 | 
[V:4] B2c2A4 | 
[V:5] z8 | 
[V:6] z8 | 
[V:7] z8 | 
[V:8] z8 | 
[V:9] z8 | 
[V:10] z8 | 
[V:11] z8 | 
[V:12] z8 | 
[V:1] z8 | 
[V:2] G2d3Bd2 | 
[V:3] z8 | 
[V:4] G4g3f | 
[V:5] z8 | 
[V:6] z8 | 
[V:7] z8 | 
[V:8] z8 | 
[V:9] z8 | 
[V:10] z8 | 
[V:11] z8 | 
[V:12] z8 | 
[V:1] z8 | 
[V:2] BGd3cd2 | 
[V:3] z8 | 
[V:4] g2d2g3f | 
[V:5] z8 | 
[V:6] z8 | 
[V:7] z8 | 
[V:8] z8 | 
[V:9] z8 | 
[V:10] z8 | 
[V:11] z8 | 
[V:12] z8 | 
[V:1] z8 | 
[V:2] B2G2c2A2 | 
[V:3] z8 | 
[V:4] g2e2c2f2 | 
[V:5] z8 | 
[V:6] z8 | 
[V:7] z8 | 
[V:8] z8 | 
[V:9] z8 | 
[V:10] z8 | 
[V:11] z8 | 
[V:12] z8 | 
[V:1] z8 | 
[V:2] d3cBAG2- | 
[V:3] z8 | 
[V:4] d2g3fed | 
[V:5] z8 | 
[V:6] z8 | 
[V:7] z8 | 
[V:8] z8 | 
[V:9] z8 | 
[V:10] z8 | 
[V:11] z8 | 
[V:12] z8 | 
[V:1] z8 | 
[V:2] G2c4B2 | 
[V:3] z8 | 
[V:4] c2e2d4 | 
[V:5] z8 | 
[V:6] z8 | 
[V:7] z8 | 
[V:8] z8 | 
[V:9] z8 | 
[V:10] z8 | 
[V:11] z8 | 
[V:12] z8 | 
[V:1] e3dcBc2- | 
[V:2] c4e3d | 
[V:3] G4c4 | 
[V:4] c8 | 
[V:5] e4e2e2- | 
[V:6] E3FG2C2 | 
[V:7] G6E2- | 
[V:8] c8 | 
[V:9] z2E3FG2 | 
[V:10] E,8 | 
[V:11] C,8- | 
[V:12] C,8 | 
[V:1] c2BAG4 | 
[V:2] cBc4BA | 
[V:3] e3dcBc2- | 
[V:4] z4e3d | 
[V:5] efg2c2g2 | 
[V:6] z2E3FG2 | 
[V:7] E2C2C4 | 
[V:8] c4c4- | 
[V:9] C2z2E3F | 
[V:10] G,6E,2- | 
[V:11] C,4C,4 | 
[V:12] C,4G,4- | 
[V:1] z4G4 | 
[V:2] G4E4- | 
[V:3] c2BAG2c2- | 
[V:4] cBc4BA | 
[V:5] z2g4e2- | 
[V:6] C2e3fg2 | 
[V:7] G8- | 
[V:8] c4c4 | 
[V:9] G2C2e3f | 
[V:10] E,2C,2C,4 | 
[V:11] C,8- | 
[V:12] G,2E,4C,2 | 
[V:1] G4c4 | 
[V:2] E2E2E4 | 
[V:3] c2BAG2C2- | 
[V:4] G2g3fg2 | 
[V:5] e2c2c4 | 
[V:6] c2e3dcB | 
[V:7] G8 | 
[V:8] c8 | 
[V:9] g2c2e3d | 
[V:10] z4C,4- | 
[V:11] C,8 | 
[V:12] C,4G,4 | 
[V:1] c2A4F2 | 
[V:2] F4c4- | 
[V:3] C4F4 | 
[V:4] a4z4 | 
[V:5] z4z2FG | 
[V:6] c2FGABc2 | 
[V:7] c6A2- | 
[V:8] A8- | 
[V:9] cBc2FGAB | 
[V:10] C,8 | 
[V:11] F,,8- | 
[V:12] F,6E,D, | 
[V:1] F4z2c2- | 
[V:2] c2A4F2 | 
[V:3] z2c4A2- | 
[V:4] a4f4- | 
[V:5] ABc2F4 | 
[V:6] F4c4- | 
[V:7] A2F2F4 | 
[V:8] A8 | 
[V:9] c2FGABc2 | 
[V:10] F,6E,D, | 
[V:11] F,,8- | 
[V:12] C,8 | 
[V:1] cBAGF4 | 
[V:2] F4c4 | 
[V:3] A2GFA4 | 
[V:4] f2edc4 | 
[V:5] z2F3GA2 | 
[V:6] c2def4 | 
[V:7] A8 | 
[V:8] c8 | 
[V:9] z2F3EC2 | 
[V:10] C,8 | 
[V:11] F,,8 | 
[V:12] F,8 | 
[V:1] z2d3cBA | 
[V:2] G4z2d2- | 
[V:3] d4B2G2 | 
[V:4] z2g4fe | 
[V:5] D2d4d2 | 
[V:6] z4d4- | 
[V:7] G8- | 
[V:8] B8- | 
[V:9] G4z2D2- | 
[V:10] z8 | 
[V:11] G,,8- | 
[V:12] D,6G,2- | 
[V:1] G4z2G2- | 
[V:2] dcBAG2d2- | 
[V:3] d3cBAG2 | 
[V:4] d4z2d2- | 
[V:5] Bcd2G4 | 
[V:6] d2g4fe | 
[V:7] G4d4- | 
[V:8] B8 | 
[V:9] D2EFG2D2 | 
[V:10] D,8- | 
[V:11] G,,8 | 
[V:12] G,2F,E,D,4 | 
[V:1] G2^FEF4 | 
[V:2] dcdcA4 | 
[V:3] A2D2z2d2- | 
[V:4] def3edc | 
[V:5] z2A4D2- | 
[V:6] d4D4 | 
[V:7] d8 | 
[V:8] A8 | 
[V:9] z2d3cA2 | 
[V:10] D,8- | 
[V:11] D,8 | 
[V:12] F,8 | 
[V:1] G4z2G2- | 
[V:2] z2B3AGF | 
[V:3] dcBAG4 | 
[V:4] d2G2d4 | 
[V:5] D2D2G4 | 
[V:6] G3ABcd2 | 
[V:7] B8 | 
[V:8] G8- | 
[V:9] B2d3GG2 | 
[V:10] D,8 | 
[V:11] G,,8 | 
[V:12] z4D,4 | 
[V:1] GFEDE4 | 
[V:2] E4z4 | 
[V:3] z2e3dcB | 
[V:4] z2g4c2- | 
[V:5] z2C2G4 | 
[V:6] G4c2c2- | 
[V:7] c8- | 
[V:8] G8 | 
[V:9] z2G2C2G2 | 
[V:10] C,8- | 
[V:11] C,8 | 
[V:12] E,8 | 
[V:1] F4c4 | 
[V:2] c4c2c2- | 
[V:3] A2c3BAG | 
[V:4] c2f4ed | 
[V:5] z2C2F3G | 
[V:6] cBAGF4- | 
[V:7] c8 | 
[V:8] A4A4- | 
[V:9] F3GA3B | 
[V:10] C,8 | 
[V:11] F,,8- | 
[V:12] C,8- | 
[V:1] c2c3BAG | 
[V:2] cBAGA4 | 
[V:3] F6ED | 
[V:4] c4f4 | 
[V:5] A3Bc4 | 
[V:6] F2EDC4 | 
[V:7] c4c2c2- | 
[V:8] A4A4 | 
[V:9] c4F4- | 
[V:10] F,8- | 
[V:11] F,,8- | 
[V:12] C,8- | 
[V:1] A4F4 | 
[V:2] F4c4 | 
[V:3] C4z4 | 
[V:4] z2f3ga2 | 
[V:5] z2c2f4 | 
[V:6] c4c4 | 
[V:7] cBAGA4 | 
[V:8] A8 | 
[V:9] F2EDC4 | 
[V:10] F,8 | 
[V:11] F,,8 | 
[V:12] C,8 | 
[V:1] d4d2d2- | 
[V:2] B6G2- | 
[V:3] z2G3ABc | 
[V:4] d8 | 
[V:5] z2d2g4 | 
[V:6] G3ABcd2 | 
[V:7] G6FE | 
[V:8] B8- | 
[V:9] G4D4- | 
[V:10] D,8- | 
[V:11] G,,8- | 
[V:12] z4G,4- | 
[V:1] dcBAB2G2- | 
[V:2] GABcd2D2- | 
[V:3] d4G4 | 
[V:4] g6fe | 
[V:5] G8 | 
[V:6] G2d2D2G2 | 
[V:7] D4d4- | 
[V:8] B8 | 
[V:9] D4G4 | 
[V:10] D,8- | 
[V:11] G,,8 | 
[V:12] G,2F,E,D,4 | 
[V:1] G2^FEF4 | 
[V:2] DEFGA4 | 
[V:3] z4d4 | 
[V:4] d8- | 
[V:5] A8 | 
[V:6] FDd3cA2 | 
[V:7] d2cBA4 | 
[V:8] A8 | 
[V:9] D4z4 | 
[V:10] D,8 | 
[V:11] D,8 | 
[V:12] F,6D,2 | 
[V:1] G8- | 
[V:2] z2B4AG | 
[V:3] d2d4cB | 
[V:4] d8- | 
[V:5] z8 | 
[V:6] B2G2G4 | 
[V:7] z4d4- | 
[V:8] G8 | 
[V:9] z4G4- | 
[V:10] D,8- | 
[V:11] G,,8- | 
[V:12] G,,8- | 
[V:1] G8- | 
[V:2] d8- | 
[V:3] B8- | 
[V:4] d8- | 
[V:5] B8- | 
[V:6] G8- & d8- | 
[V:7] d4B4 | 
[V:8] G8- | 
[V:9] G8- | 
[V:10] D,8- | 
[V:11] G,,8- | 
[V:12] G,,8- | 
[V:1] G8 |]  
[V:2] d8 |]  
[V:3] B8 |]  
[V:4] d8 |]  
[V:5] B8 |]  
[V:6] G8 & d8 |]  
[V:7] B8 |]  
[V:8] G8 |]  
[V:9] G8 |]  
[V:10] D,8 |]  
[V:11] G,,8 |]  
[V:12] G,,8 |]  



